**kern	**dynam	**kern	**dynam	**kern	**dynam	**kern	**dynam	**mxhm	**kern	**kern	**kern
=1	=1	=1	=1	=1	=1	=1	=1	=1	=1	=1	=1
4FF##'	ff ff	4F##'	ff	4f##'	.	4f##'	.	i	=1	f##	M2/2
4r	ff ff	4r	ff	4r	ff	4r	.	i	=1	f##	M2/2
2r	ff ff	2r	ff	2r	ff	2r	.	i	=1	f##	M2/2
=2	=2	=2	=2	=2	=2	=2	=2	=2	=2	=2	=2
4r	ff ff	4r	ff	4r	ff	4r	.	i	=2	f##	M2/2
(8FF##L	ff ff	(8F##L	ff	(8f##L	ff	(8f##L	.	i	=2	f##	M2/2
8AA#J	ff ff	8A#J	ff	8a#J	ff	8a#J	.	i	=2	f##	M2/2
4C##')	ff ff	4c##')	ff	4cc##')	ff	4cc##')	.	i	=2	f##	M2/2
(8D#L	ff ff	(8d#L	ff	(8dd#L	ff	(8dd#L	.	i	=2	f##	M2/2
8FF##J	ff ff	8F##J	ff	8f##J	ff	8f##J	.	i	=2	f##	M2/2
=3	=3	=3	=3	=3	=3	=3	=3	=3	=3	=3	=3
4EE##X)	ff ff	4E##X)	ff	4e##X)	ff	4e##X)	.	V6	=3	f##	M2/2
4r	ff ff	4r	ff	4r	ff	4r	.	V6	=3	f##	M2/2
2r	ff ff	2r	ff	2r	ff	2r	.	V6	=3	f##	M2/2
=4	=4	=4	=4	=4	=4	=4	=4	=4	=4	=4	=4
4r	ff ff	4r	ff	4r	ff	4r	.	V6	=4	f##	M2/2
(8EE##XL	ff ff	(8E##XL	ff	(8e##XL	ff	(8e##XL	.	V6	=4	f##	M2/2
8GG##J	ff ff	8G##J	ff	8g##J	ff	8g##J	.	V6	=4	f##	M2/2
4C##')	ff ff	4c##')	ff	4cc##')	ff	4cc##')	.	V6	=4	f##	M2/2
(8D#L	ff ff	(8d#L	ff	(8dd#L	ff	(8dd#L	.	V6	=4	f##	M2/2
8EE##J	ff ff	8E##J	ff	8e##J	ff	8e##J	.	V6	=4	f##	M2/2
=5	=5	=5	=5	=5	=5	=5	=5	=5	=5	=5	=5
4FF##)	ff ff	4F##)	ff	4f##)	ff	4f##)	.	i	=5	f##	M2/2
8r	ff ff	8r	ff	8r	ff	4r	.	i	=5	f##	M2/2
8F##	ff ff	8f##	ff	8c## 8a#	ff	4r	.	i	=5	f##	M2/2
4F##	ff ff	4f##	ff	4c## 4a#	ff	4ff##	.	i	=5	f##	M2/2
8r	ff ff	8r	ff	8r	ff	8r	.	i	=5	f##	M2/2
8F##	ff ff	8f##	ff	8c## 8a#	ff	8gg##	.	i	=5	f##	M2/2
=6	=6	=6	=6	=6	=6	=6	=6	=6	=6	=6	=6
4F##	ff ff	4f##	ff	4c## 4a#	ff	4aa#	.	i	=6	f##	M2/2
8r	ff ff	8r	ff	8r	ff	8r	.	i	=6	f##	M2/2
8F##	ff ff	8f##	ff	8c## 8a#	ff	8bb#	.	i	=6	f##	M2/2
4F##	ff ff	4f##	ff	4c## 4a#	ff	4ccc##	.	i	=6	f##	M2/2
8r	ff ff	8r	ff	8r	ff	8r	.	i	=6	f##	M2/2
8F##	ff ff	8f##	ff	8c## 8a#	ff	8ddd#	.	i	=6	f##	M2/2
=7	=7	=7	=7	=7	=7	=7	=7	=7	=7	=7	=7
4F##	ff ff	4f##	ff	4c## 4a#	ff	4ccc##	.	i	=7	f##	M2/2
8r	ff ff	8r	ff	8r	ff	4r	.	i	=7	f##	M2/2
8F##	ff ff	8f##	ff	8c## 8a#	ff	4r	.	i	=7	f##	M2/2
4F##	ff ff	4f##	ff	4c## 4a#	ff	4ccc##	.	i	=7	f##	M2/2
8r	ff ff	8r	ff	8r	ff	8r	.	i	=7	f##	M2/2
8F##	ff ff	8f##	ff	8c## 8a#	ff	8bb#	.	i	=7	f##	M2/2
=8	=8	=8	=8	=8	=8	=8	=8	=8	=8	=8	=8
4F##	ff ff	4f##	ff	4c## 4a#	ff	4aa#	.	i	=8	f##	M2/2
8r	ff ff	8r	ff	8r	ff	8r	.	i	=8	f##	M2/2
8F##	ff ff	8f##	ff	8c## 8a#	ff	8gg##	.	i	=8	f##	M2/2
4F##	ff ff	4f##	ff	4c## 4a#	ff	4aa#	.	i	=8	f##	M2/2
8r	ff ff	8r	ff	8r	ff	8r	.	i	=8	f##	M2/2
8F##	ff ff	8f##	ff	8c## 8a#	ff	8ff##	.	i	=8	f##	M2/2
=9	=9	=9	=9	=9	=9	=9	=9	=9	=9	=9	=9
4C##	ff ff	4e##X	ff	4c## 4g##	ff	4gg##	.	V	=9	f##	M2/2
8r	ff ff	8r	ff	8r	ff	4r	.	V	=9	f##	M2/2
8F##	ff ff	8f##	ff	8c## 8a#	ff	4r	.	V	=9	f##	M2/2
4F##	ff ff	4f##	ff	4c## 4a#	ff	4ff##	.	i	=9	f##	M2/2
8r	ff ff	8r	ff	8r	ff	8r	.	i	=9	f##	M2/2
8F##	ff ff	8f##	ff	8c## 8a#	ff	8gg##	.	i	=9	f##	M2/2
=10	=10	=10	=10	=10	=10	=10	=10	=10	=10	=10	=10
4F##	ff ff	4f##	ff	4c## 4a#	ff	4aa#	.	i	=10	f##	M2/2
8r	ff ff	8r	ff	8r	ff	8r	.	i	=10	f##	M2/2
8F##	ff ff	8f##	ff	8c## 8a#	ff	8bb#	.	i	=10	f##	M2/2
4F##	ff ff	4f##	ff	4c## 4a#	ff	4ccc##	.	i	=10	f##	M2/2
8r	ff ff	8r	ff	8r	ff	8r	.	i	=10	f##	M2/2
8F##	ff ff	8f##	ff	8c## 8a#	ff	8ddd##X	.	i	=10	f##	M2/2
=11	=11	=11	=11	=11	=11	=11	=11	=11	=11	=11	=11
4G##	ff ff	4e#	ff	4c## 4g##	ff	4eee#	.	V(64)/v	=11	f##	M2/2
8r	ff ff	8r	ff	8r	ff	4r	.	V(64)/v	=11	f##	M2/2
8G##	ff ff	8e#	ff	8c## 8g##	ff	4r	.	V(64)/v	=11	f##	M2/2
4G##	ff ff	4e#	ff	4c## 4g##	ff	4eee#	.	V(64)/v	=11	f##	M2/2
8r	ff ff	8r	ff	8r	ff	8r	.	V(64)/v	=11	f##	M2/2
8G##	ff ff	8e#	ff	8c## 8g##	ff	8ccc##	.	V(64)/v	=11	f##	M2/2
=12	=12	=12	=12	=12	=12	=12	=12	=12	=12	=12	=12
4G##	ff ff	4B##X	ff	4f## 4g##	ff	4ddd##X	.	V7/v	=12	f##	M2/2
8r	ff ff	8r	ff	8r	ff	8r	.	V7/v	=12	f##	M2/2
8G##	ff ff	8c##	ff	8e# 8g##	ff	8ccc##	.	V7/v	=12	f##	M2/2
4G##	ff ff	4B##	ff	4f## 4g##	ff	4ddd##	.	V7/v	=12	f##	M2/2
8r	ff ff	8r	ff	8r	ff	8r	.	V7/v	=12	f##	M2/2
8G##	ff ff	8d##X	ff	8f## 8g##	ff	8bb##X	.	V7/v	=12	f##	M2/2
=13	=13	=13	=13	=13	=13	=13	=13	=13	=13	=13	=13
4C##	ff ff	4c##	ff	4e# 4g##	ff	4ccc##	.	V[v	=13	f##	M2/2
8r	ff ff	8r	ff	8r	ff	4r	.	V[v	=13	f##	M2/2
8C##	ff ff	8c##	ff	8e##X 8g##	ff	4r	.	V[v	=13	f##	M2/2
4C##	ff ff	4c##	ff	4e## 4g##	ff	4ddd#	.	V7(+9)	=13	f##	M2/2
8r	ff ff	8r	ff	8r	ff	8r	.	V7(+9)	=13	f##	M2/2
8C##	ff ff	8c##	ff	8e## 8g##	ff	8ccc##	.	V7(+9)	=13	f##	M2/2
=14	=14	=14	=14	=14	=14	=14	=14	=14	=14	=14	=14
4C##	ff ff	4c##	ff	4e##X 4g##	ff	4bb#	.	V7	=14	f##	M2/2
8r	ff ff	8r	ff	8r	ff	8r	.	V7	=14	f##	M2/2
8C##	ff ff	8c##	ff	8e## 8g##	ff	8aa#	.	V7	=14	f##	M2/2
4C##	ff ff	4c##	ff	4e## 4g##	ff	4bb#	.	V7	=14	f##	M2/2
8r	ff ff	8r	ff	8r	ff	8r	.	V7	=14	f##	M2/2
8C##	ff ff	8c##	ff	8e## 8g##	ff	8gg##	.	V7	=14	f##	M2/2
=15	=15	=15	=15	=15	=15	=15	=15	=15	=15	=15	=15
4C##	ff ff	4f##	ff	4c## 4a#	ff	4aa#	.	i	=15	f##	M2/2
8r	ff ff	8r	ff	8r	ff	4r	.	i	=15	f##	M2/2
8C##	ff ff	8f##	ff	8c## 8a#	ff	4r	.	i	=15	f##	M2/2
4C##	ff ff	4f##	ff	4c## 4a#	ff	4bb#	.	i	=15	f##	M2/2
8r	ff ff	8r	ff	8r	ff	8r	.	i	=15	f##	M2/2
8C##	ff ff	8f##	ff	8c## 8a#	ff	8aa#	.	i	=15	f##	M2/2
=16	=16	=16	=16	=16	=16	=16	=16	=16	=16	=16	=16
4C##	ff ff	4g##	ff	4c## 4b#	ff	4gg##	.	V7]	=16	f##	M2/2
8r	ff ff	8r	ff	8r	ff	8r	.	V7]	=16	f##	M2/2
8C##	ff ff	8g##	ff	8c## 8b#	ff	8ff##	.	V7]	=16	f##	M2/2
4C##	ff ff	4g##	ff	4c## 4b#	ff	4gg##	.	V7]	=16	f##	M2/2
8r	ff ff	8r	ff	8r	ff	8r	.	V7]	=16	f##	M2/2
8C##	ff ff	8g##	ff	8c## 8b#	ff	8ee##X	.	V7]	=16	f##	M2/2
=17	=17	=17	=17	=17	=17	=17	=17	=17	=17	=17	=17
4F##	ff ff	4f##	ff	4c## 4a#	ff	4ff##	.	i	=17	f##	M2/2
8r	ff ff	8r	ff	8r	ff	4r	.	i	=17	f##	M2/2
8F##	ff ff	8f##	ff	8c## 8a#	ff	4r	.	i	=17	f##	M2/2
4B#	p	4d#	p p	4g#	ff	(4.ddd#	p	.bII6	=17	f##	M2/2
8r	p	8r	p p	8r	ff	(4.ddd#	p	.bII6	=17	f##	M2/2
8B#	p	8d#	p p	8g#	ff	8ccc#	p	.bII6	=17	f##	M2/2
=18	=18	=18	=18	=18	=18	=18	=18	=18	=18	=18	=18
2r	p	2r	p p	2r	ff	4.bb#	p	.bII6	=18	f##	M2/2
2r	p	2r	p p	2r	ff	8aa#	p	.bII6	=18	f##	M2/2
4B#	p	4d#	p p	4g#	ff	4bb#	p	.bII6	=18	f##	M2/2
8r	p	8r	p p	8r	ff	4gg#)	p	.bII6	=18	f##	M2/2
8B#	p	8d#	p p	8g#	ff	4gg#)	p	.bII6	=18	f##	M2/2
=19	=19	=19	=19	=19	=19	=19	=19	=19	=19	=19	=19
2r	p	2r	p p	2r	ff	(2aa#	p	.bII6	=19	f##	M2/2
4c##	p	4f##	p p	4a#	ff	4.bb#	p	V(64)	=19	f##	M2/2
8r	p	8r	p p	8r	ff	4.bb#	p	V(64)	=19	f##	M2/2
8c##	p	8f##	p p	8a#	ff	8aa#	p	V(64)	=19	f##	M2/2
=20	=20	=20	=20	=20	=20	=20	=20	=20	=20	=20	=20
2r	p	1r	p p	2r	ff	4.gg#	p	V(6b5)	=20	f##	M2/2
2r	p	1r	p p	2r	ff	8ff##	p	V(6b5)	=20	f##	M2/2
4c##	p	1r	p p	4a#	ff	4.gg#	p	V(6b5)	=20	f##	M2/2
8r	p	1r	p p	8r	ff	4.gg#	p	V(6b5)	=20	f##	M2/2
8c##	p	1r	p p	8a#	ff	8ee##X)	p	V(6b5)	=20	f##	M2/2
=21	=21	=21	=21	=21	=21	=21	=21	=21	=21	=21	=21
4c##	p	4f##	p	2.a#	ff	2.ff##	p	i64	=21	f##	M2/2
2r	p	8r	p	2.a#	ff	2.ff##	p	i64	=21	f##	M2/2
2r	p	8c##	p	2.a#	ff	2.ff##	p	i64	=21	f##	M2/2
2r	p	4c##	p	2.a#	ff	2.ff##	p	i64	=21	f##	M2/2
(4F##	<	8r	<	(4a#	<	(4fff##	<	i	=21	f##	M2/2
(4F##	<	8c##	<	(4a#	<	(4fff##	<	i	=21	f##	M2/2
=22	=22	=22	=22	=22	=22	=22	=22	=22	=22	=22	=22
2G##	<	4c##	<	2b#	<	2eee##X	<	V43	=22	f##	M2/2
2G##	<	8r	<	2b#	<	2eee##X	<	V43	=22	f##	M2/2
2G##	<	8c##	<	2b#	<	2eee##X	<	V43	=22	f##	M2/2
2B#	[ >	4c##	[ >	4dd#)	[ >	2ddd#	[ >	V2(+9)	=22	f##	M2/2
2B#	[ >	8r	[ >	(4b#	[ >	2ddd#	[ >	V2(+9)	=22	f##	M2/2
2B#	[ >	8c##	[ >	(4b#	[ >	2ddd#	[ >	V2(+9)	=22	f##	M2/2
=23	=23	=23	=23	=23	=23	=23	=23	=23	=23	=23	=23
2.A#)	[ >	4c##	[ >	2ee##X	[ >	2.ccc##)	[ >	i6	=23	f##	M2/2
2.A#)	[ >	8r	[ >	2ee##X	[ >	2.ccc##)	[ >	i6	=23	f##	M2/2
2.A#)	[ >	8c##	[ >	2ee##X	[ >	2.ccc##)	[ >	i6	=23	f##	M2/2
2.A#)	[ >	4c##	[ >	4ff##)	[ >	2.ccc##)	[ >	i6	=23	f##	M2/2
(4F##	] p	8r	]	(4a#	] p	(4fff##	]	i	=23	f##	M2/2
(4F##	] p	8c##	]	(4a#	] p	(4fff##	]	i	=23	f##	M2/2
=24	=24	=24	=24	=24	=24	=24	=24	=24	=24	=24	=24
4G##	] p	4c##	]	4b#	] p	4eee##X	p	V43	=24	f##	M2/2
4F##	] p	8r	]	4a#	] p	4fff##	p	V43	=24	f##	M2/2
4F##	] p	8c##	]	4a#	] p	4fff##	p	V43	=24	f##	M2/2
4E##X	] p	4c##	]	4g##	] p	4ggg##	p	V65	=24	f##	M2/2
4F##	] p	8r	]	4f##	] p	4aaa#	p	i	=24	f##	M2/2
4F##	] p	8c##	]	4f##	] p	4aaa#	p	i	=24	f##	M2/2
=25	=25	=25	=25	=25	=25	=25	=25	=25	=25	=25	=25
4C##)	] p	4c##	]	4e##X)	] p	4ggg##)	p	V	=25	f##	M2/2
2r	] p	8r	]	2r	] p	2r	p	V	=25	f##	M2/2
2r	] p	8c##	]	2r	] p	2r	p	V	=25	f##	M2/2
2r	] p	4c##	]	2r	] p	2r	p	V	=25	f##	M2/2
(4F##	<	8r	]	(4a#	<	(4fff##	<	i	=25	f##	M2/2
(4F##	<	8c##	]	(4a#	<	(4fff##	<	i	=25	f##	M2/2
=26	=26	=26	=26	=26	=26	=26	=26	=26	=26	=26	=26
2G##	<	4c##	]	2b#	<	2eee##X	<	V43	=26	f##	M2/2
2G##	<	8r	]	2b#	<	2eee##X	<	V43	=26	f##	M2/2
2G##	<	8c##	]	2b#	<	2eee##X	<	V43	=26	f##	M2/2
2B#	[ > ]]	4c##	]	4dd#)	[ >	2ddd#	[ > ]]	V2(+9)	=26	f##	M2/2
2B#	[ > ]]	8r	]	(4b#	<[	2ddd#	[ > ]]	V2(+9)	=26	f##	M2/2
2B#	[ > ]]	8c##	]	(4b#	<[	2ddd#	[ > ]]	V2(+9)	=26	f##	M2/2
=27	=27	=27	=27	=27	=27	=27	=27	=27	=27	=27	=27
2.A#)	[ > ]]	4c##	]	2ee##X	<[	2.ccc##)	[ > ]]	i6	=27	f##	M2/2
2.A#)	[ > ]]	8r	]	2ee##X	<[	2.ccc##)	[ > ]]	i6	=27	f##	M2/2
2.A#)	[ > ]]	8c##	]	2ee##X	<[	2.ccc##)	[ > ]]	i6	=27	f##	M2/2
2.A#)	[ > ]]	4c##	]	4ff##)	<[	2.ccc##)	[ > ]]	i6	=27	f##	M2/2
(4F##	p	8r	]	(4ff##	[	(4fff##	[ > ]]	i	=27	f##	M2/2
(4F##	p	8A#	]	(4ff##	[	(4fff##	[ > ]]	i	=27	f##	M2/2
=28	=28	=28	=28	=28	=28	=28	=28	=28	=28	=28	=28
4C##	p	4c##	]	4aa#	p	4aaa#	[ > ]]	i64	=28	f##	M2/2
4E##X	p	8r	]	4gg##	p	4ggg##	[ > ]]	V65	=28	f##	M2/2
4E##X	p	8B#	]	4gg##	p	4ggg##	[ > ]]	V65	=28	f##	M2/2
4F##)	p	4A#	]	4ff##	p	4fff##	[ > ]]	i	=28	f##	M2/2
4G##	p	8r	]	4ee##X)	p	4eee##X)	[ > ]]	V43	=28	f##	M2/2
4G##	p	8B#	]	4ee##X)	p	4eee##X)	[ > ]]	V43	=28	f##	M2/2
=29	=29	=29	=29	=29	=29	=29	=29	=29	=29	=29	=29
4F##	p	4A#	]	4ff##	p	4fff##	[ > ]]	V\\	=29	f##	M2/2
2r	p	8r	]	4r	p	4r	[ > ]]	V\\	=29	f##	M2/2
2r	p	8F##	]	4r	p	4r	[ > ]]	V\\	=29	f##	M2/2
2r	p	4F##	]	2r	p	2r	[ > ]]	V\\	=29	f##	M2/2
(4FF## 4F##	p	(4F## 4f##	]	2r	p	2r	[ > ]]	V\\	=29	f##	M2/2
=30	=30	=30	=30	=30	=30	=30	=30	=30	=30	=30	=30
2E## (1EE##	<	2e##X (1E##X	<	2r	p	2r	[ > ]]	#viio7	=30	f##	M2/2
2D#	<	2d#	<	4r	p	4r	[ > ]]	#viio7	=30	f##	M2/2
2D#	<	2d#	<	(4b#	<	(4b#	<	#viio7	=30	f##	M2/2
=31	=31	=31	=31	=31	=31	=31	=31	=31	=31	=31	=31
4C##) 4EE##)	[ >	4c##) 4E##X)	[ >	2e##X	<	2ee##X	<	V65	=31	f##	M2/2
4rGG	p	4rF	p	2e##X	<	2ee##X	<	V65	=31	f##	M2/2
4rGG	p	4rF	p	2f##)	[[	2ff##)	[[	i	=31	f##	M2/2
(4FF##	p	(4F##	p	2f##)	[[	2ff##)	[[	i	=31	f##	M2/2
=32	=32	=32	=32	=32	=32	=32	=32	=32	=32	=32	=32
4EE##X	]	4E##X	]	1r	[[	1r	[[	V65	=32	f##	M2/2
4FF##	]	4F##	]	1r	[[	1r	[[	V65	=32	f##	M2/2
4GG##	]	4G##	]	1r	[[	1r	[[	V65	=32	f##	M2/2
4AA#	]	4A#	]	1r	[[	1r	[[	V65	=32	f##	M2/2
=33	=33	=33	=33	=33	=33	=33	=33	=33	=33	=33	=33
4GG##)	]	4G##)	]	1r	[[	1r	[[	V43	=33	f##	M2/2
2r	]	2r	]	1r	[[	1r	[[	V43	=33	f##	M2/2
(4FF## 4F##	]	(4F## 4f##	]	1r	[[	1r	[[	V43	=33	f##	M2/2
=34	=34	=34	=34	=34	=34	=34	=34	=34	=34	=34	=34
2E##X (1EE##X	]	2e##X 1E##X	]	2r	[[	2r	[[	#viio7	=34	f##	M2/2
2D#	]	2d#	]	4r	[[	4r	[[	#viio7	=34	f##	M2/2
2D#	]	2d#	]	(4b#	<	(4bb#	<	#viio7	=34	f##	M2/2
=35	=35	=35	=35	=35	=35	=35	=35	=35	=35	=35	=35
4C##) 4EE##X)	]	4c##) 4E##X	]	2ee##X	<	2eee##X	<	V65	=35	f##	M2/2
4rGG	]	4rF	]	2ee##X	<	2eee##X	<	V65	=35	f##	M2/2
4rGG	]	4rF	]	2ff##)	[[	2fff##)	[[	i	=35	f##	M2/2
(4FF##	p p	(4F##	]	2ff##)	[[	2fff##)	[[	i	=35	f##	M2/2
=36	=36	=36	=36	=36	=36	=36	=36	=36	=36	=36	=36
4AA#	p p	4A#	]	2r	[[	1r	[[	V6	=36	f##	M2/2
4GG##	p p	4G##	]	2r	[[	1r	[[	V6	=36	f##	M2/2
4FF##	p p	4F##	]	4r	[[	1r	[[	V6	=36	f##	M2/2
4EE##X)	p p	4E##X)	]	(4c##	[[	1r	[[	V6	=36	f##	M2/2
=37	=37	=37	=37	=37	=37	=37	=37	=37	=37	=37	=37
(4C##	p p	(4c##	]	4a#	p	2r	[[	i64	=37	f##	M2/2
4BB#	p p	4B#	]	4g##	p	2r	[[	i64	=37	f##	M2/2
4AA#	p p	4A#	]	4f##	p	4r	p	i6	=37	f##	M2/2
4GG##)	p p	4G##)	]	4e##X)	p	(4ee##X	p	V64	=37	f##	M2/2
=38	=38	=38	=38	=38	=38	=38	=38	=38	=38	=38	=38
(4AA#	p p	(4A#	]	(4f##	p	4ccc##	p	i6	=38	f##	M2/2
4GG##	p p	4E##X	]	4g##	p	4bb#	p	i6	=38	f##	M2/2
4FF##	p p	4F##	]	4a#	p	4aa#	p	i	=38	f##	M2/2
4EE##X	p p	4c##)	]	4b#	p	4gg##	p	V65	=38	f##	M2/2
=39	=39	=39	=39	=39	=39	=39	=39	=39	=39	=39	=39
4FF##	p p	(4c##	]	4a#	p	4aa#	p	i	=39	f##	M2/2
4BB#	p p	4d#	]	4b#	p	4gg##	p	iio6	=39	f##	M2/2
4C##)	p p	4c##	]	4a#	p	4ff##	p	V(64)	=39	f##	M2/2
4cc##	p p	4b#)	]	4g##)	p	4ee##X)	p	V43	=39	f##	M2/2
=40	=40	=40	=40	=40	=40	=40	=40	=40	=40	=40	=40
4cc##	f	4a#	f f	4f##	f	4ff##	p	i\\	=40	f##	M2/2
8r	f	8r	f f	8r	f	4r	p	i\\	=40	f##	M2/2
8cc##	f	8ff##	f f	8aa#	f	4r	p	i\\	=40	f##	M2/2
4cc##	f	4ff##	f f	4aa#	f	2r	p	i64	=40	f##	M2/2
8r	f	8r	f f	8r	f	2r	p	i64	=40	f##	M2/2
8cc##	f	8ff##	f f	8aa#	f	2r	p	i64	=40	f##	M2/2
=41	=41	=41	=41	=41	=41	=41	=41	=41	=41	=41	=41
4cc##	f	4ff##	f f	4aa#	f	4r	p	i64	=41	f##	M2/2
8r	f	8r	f f	8r	f	(8f##L	p	i64	=41	f##	M2/2
8cc##	f	8ff##	f f	8aa#	f	8a#J	p	i64	=41	f##	M2/2
4cc##	f	4ff##	f f	4aa#	f	4cc##')	p	i64	=41	f##	M2/2
8r	f	8r	f f	8r	f	(8dd#L	p	i64	=41	f##	M2/2
8cc##	f	8ff##	f f	8aa#	f	8f##J	p	i64	=41	f##	M2/2
=42	=42	=42	=42	=42	=42	=42	=42	=42	=42	=42	=42
4cc##	f	4gg##	f f	4bb#	f	4e##X')	p	V7	=42	f##	M2/2
8r	f	8r	f f	8r	f	4r	p	V7	=42	f##	M2/2
8cc##	f	8gg##	f f	8bb#	f	4r	p	V7	=42	f##	M2/2
4cc##	f	4gg##	f f	4bb#	f	2r	p	V7	=42	f##	M2/2
8r	f	8r	f f	8r	f	2r	p	V7	=42	f##	M2/2
8cc##	f	8gg##	f f	8bb#	f	2r	p	V7	=42	f##	M2/2
=43	=43	=43	=43	=43	=43	=43	=43	=43	=43	=43	=43
4cc##	f	4gg##	f f	4bb#	f	4r	p	V7	=43	f##	M2/2
8r	f	8r	f f	8r	f	(8e##XL	p	V7	=43	f##	M2/2
8cc##	f	8gg##	f f	8bb#	f	8g##J	p	V7	=43	f##	M2/2
4cc##	f	4gg##	f f	4bb#	f	4cc##')	p	V7	=43	f##	M2/2
8r	f	8r	f f	8r	f	(8dd#L	p	V7	=43	f##	M2/2
8cc##	f	8gg##	f f	8bb#	f	8e##J	p	V7	=43	f##	M2/2
=44	=44	=44	=44	=44	=44	=44	=44	=44	=44	=44	=44
4cc##	f	4ff##	f f	4aa#	f	4f##')	p	i64	=44	f##	M2/2
8r	f	8r	f f	8r	f	4r	p	i64	=44	f##	M2/2
8f##	f	8a#	f f	8cc##	f	4r	p	i64	=44	f##	M2/2
4f##	f	4a#	f f	4cc##	f	4ff##	p	i	=44	f##	M2/2
8r	f	8r	f f	8r	f	8r	p	i	=44	f##	M2/2
8f##	f	8a#	f f	8cc##	f	8gg##	p	i	=44	f##	M2/2
=45	=45	=45	=45	=45	=45	=45	=45	=45	=45	=45	=45
4f##	f	4a#	f f	4cc##	f	4aa#	p	i	=45	f##	M2/2
8r	f	8r	f f	8r	f	8r	p	i	=45	f##	M2/2
8f##	f	8a#	f f	8cc##	f	8bb#	p	i	=45	f##	M2/2
4f##	f	4a#	f f	4cc##	f	4ccc##	p	i	=45	f##	M2/2
8r	f	8r	f f	8r	f	8r	p	i	=45	f##	M2/2
8f##	f	8a#	f f	8cc##	f	8ddd##X	p	i	=45	f##	M2/2
=46	=46	=46	=46	=46	=46	=46	=46	=46	=46	=46	=46
4g##	>	4ee#	>	4cc##	>	(2eee#	>	V(64)/v	=46	f##	M2/2
8r	>	8r	>	8r	>	(2eee#	>	V(64)/v	=46	f##	M2/2
8g##	>	8cc##	>	8ee#	>	(2eee#	>	V(64)/v	=46	f##	M2/2
4g##	] p p	4cc##	]	4ee#	] p	4fff##)	] p	V(64)/v	=46	f##	M2/2
8r	] p p	8r	]	8r	] p	8r	] p	V(64)/v	=46	f##	M2/2
8g##	] p p	8cc##	]	8ee#	] p	8eee#	] p	V(64)/v	=46	f##	M2/2
=47	=47	=47	=47	=47	=47	=47	=47	=47	=47	=47	=47
8g##	] p p	8cc##	]	8ee#	] p	16qqeee#/	] p	V7/V	=47	f##	M2/2
4g##	] p p	4b##X	]	4ff##	] p	4ddd##X	] p	V7/V	=47	f##	M2/2
8r	] p p	8r	]	8r	] p	8r	] p	V7/V	=47	f##	M2/2
8g##	] p p	8cc##	]	8ee#	] p	8ccc##	] p	V7/V	=47	f##	M2/2
4g##	] p p	4b##	]	4ff##	] p	4ddd##	] p	V7/V	=47	f##	M2/2
8r	] p p	8r	]	8r	] p	8r	] p	V7/V	=47	f##	M2/2
8g##	] p p	8dd##X	]	8ff##	] p	8bb##X	] p	V7/V	=47	f##	M2/2
=48	=48	=48	=48	=48	=48	=48	=48	=48	=48	=48	=48
4c##	>	4cc##	>	4ee#	>	(2ccc##	>	v	=48	f##	M2/2
8r	>	8r	>	8r	>	(2ccc##	>	v	=48	f##	M2/2
8c##	>	8g##	>	8ee#	>	(2ccc##	>	v	=48	f##	M2/2
4c##	] p	4g##	] p	4ee##X	] p	4ddd#)	] p	V7(+9)	=48	f##	M2/2
8r	] p	8r	] p	8r	] p	8r	] p	V7(+9)	=48	f##	M2/2
8c##	] p	8g##	] p	8ee##	] p	8ccc##	] p	V7(+9)	=48	f##	M2/2
=49	=49	=49	=49	=49	=49	=49	=49	=49	=49	=49	=49
8c##	] p	8g##	] p	8ee##	] p	16qqccc##/	] p	V7	=49	f##	M2/2
4c##	] p	4g##	] p	4ee##X	] p	4bb#	] p	V7	=49	f##	M2/2
8r	] p	8r	] p	8r	] p	8r	] p	V7	=49	f##	M2/2
8c##	] p	8f##	] p	8ff##	] p	8aa#	] p	V7	=49	f##	M2/2
4c##	] p	4e##X	] p	4cc##	] p	4bb#	] p	V7	=49	f##	M2/2
8r	] p	8r	] p	8r	] p	8r	] p	V7	=49	f##	M2/2
8c##	] p	8e##	] p	8cc##	] p	8gg##	] p	V7	=49	f##	M2/2
=50	=50	=50	=50	=50	=50	=50	=50	=50	=50	=50	=50
4c##	>	4f##	>	4cc##	>	(2aa#	>	i64	=50	f##	M2/2
8r	>	8r	>	8r	>	(2aa#	>	i64	=50	f##	M2/2
8c##	>	8f##	>	8cc##	>	(2aa#	>	i64	=50	f##	M2/2
4c##	] p	4f##	] p	4a#	] p	4bb#)	] p	i64	=50	f##	M2/2
8r	] p	8r	] p	8r	] p	8r	] p	i64	=50	f##	M2/2
8c##	] p	8f##	] p	8a#	] p	8aa#	] p	i64	=50	f##	M2/2
=51	=51	=51	=51	=51	=51	=51	=51	=51	=51	=51	=51
8c##	] p	8f##	] p	8a#	] p	16qqaa#/	] p	V7	=51	f##	M2/2
4c##	] p	4g##	] p	4b#	] p	4gg##	] p	V7	=51	f##	M2/2
8r	] p	8r	] p	8r	] p	8r	] p	V7	=51	f##	M2/2
8c##	] p	8g##	] p	8b#	] p	8ff##	] p	V7	=51	f##	M2/2
4c##	] p	4g##	] p	4b#	] p	4gg##	] p	V7	=51	f##	M2/2
8r	] p	8r	] p	8r	] p	8r	] p	V7	=51	f##	M2/2
8c##	] p	8g##	] p	8b#	] p	8ee##X	] p	V7	=51	f##	M2/2
=52	=52	=52	=52	=52	=52	=52	=52	=52	=52	=52	=52
(2c##	ff	4f##	] p	4a#	] p	4ff##	] p	i64	=52	f##	M2/2
(2c##	ff	4r	] p	4r	] p	4r	] p	i64	=52	f##	M2/2
4d#)	ff	2r	] p	2r	] p	2r	] p	i64	=52	f##	M2/2
8r	ff	2r	] p	2r	] p	2r	] p	i64	=52	f##	M2/2
8c##	ff	2r	] p	2r	] p	2r	] p	i64	=52	f##	M2/2
=53	=53	=53	=53	=53	=53	=53	=53	=53	=53	=53	=53
4B#	ff	(2cc## 2.f##	ff	1r	] p	1r	] p	iv	=53	f##	M2/2
8r	ff	(2cc## 2.f##	ff	1r	] p	1r	] p	iv	=53	f##	M2/2
8A#	ff	(2cc## 2.f##	ff	1r	] p	1r	] p	iv	=53	f##	M2/2
4B#	ff	4dd#)	ff	1r	] p	1r	] p	iv	=53	f##	M2/2
8r	ff	8rF	ff	1r	] p	1r	] p	iv	=53	f##	M2/2
8A#	ff	8cc##	ff	1r	] p	1r	] p	iv	=53	f##	M2/2
=54	=54	=54	=54	=54	=54	=54	=54	=54	=54	=54	=54
4G##	ff	4b#	ff	(2ee#	ff	1r	] p	V6/III	=54	f##	M2/2
8r	ff	8r	ff	(2ee#	ff	1r	] p	V6/III	=54	f##	M2/2
8F##	ff	8A#	ff	(2ee#	ff	1r	] p	V6/III	=54	f##	M2/2
4E#	ff	4G##	ff	4ff##)	ff	1r	] p	V6/III	=54	f##	M2/2
8r	ff	8r	ff	4ee#	ff	1r	] p	V6/III	=54	f##	M2/2
8F##	ff	8A#	ff	4ee#	ff	1r	] p	V6/III	=54	f##	M2/2
=55	=55	=55	=55	=55	=55	=55	=55	=55	=55	=55	=55
4E#	ff	4G##	ff	4ee#	ff	(2bb#	ff	V6/III	=55	f##	M2/2
8r	ff	8r	ff	8r	ff	(2bb#	ff	V6/III	=55	f##	M2/2
8D#	ff	8e#	ff	8g##	ff	(2bb#	ff	V6/III	=55	f##	M2/2
4C##	ff	4e#	ff	4a#	ff	4ccc##)	ff	III6	=55	f##	M2/2
8r	ff	8r	ff	8r	ff	8r	ff	III6	=55	f##	M2/2
8BB#	ff	8e#	ff	8b#	ff	8ddd#	ff	V43/III	=55	f##	M2/2
=56	=56	=56	=56	=56	=56	=56	=56	=56	=56	=56	=56
[1AA# [1E#	p	[1e#	p	(2cc##	p	[2ccc##	p	III.I	=56	f##	M2/2
[1AA# [1E#	p	[1e#	p	[2c##)	p	(8ccc##L]	p	III.I	=56	f##	M2/2
[1AA# [1E#	p	[1e#	p	[2c##)	p	8bb#	p	III.I	=56	f##	M2/2
[1AA# [1E#	p	[1e#	p	[2c##)	p	8aa#	p	III.I	=56	f##	M2/2
[1AA# [1E#	p	[1e#	p	[2c##)	p	8gg##J	p	III.I	=56	f##	M2/2
=57	=57	=57	=57	=57	=57	=57	=57	=57	=57	=57	=57
1AA#] 1E#]	p	1e#]	p	1c##]	p	8aa#L	p	I	=57	f##	M2/2
1AA#] 1E#]	p	1e#]	p	1c##]	p	8gg##	p	I	=57	f##	M2/2
1AA#] 1E#]	p	1e#]	p	1c##]	p	8ff##	p	I	=57	f##	M2/2
1AA#] 1E#]	p	1e#]	p	1c##]	p	8ee#J	p	I	=57	f##	M2/2
1AA#] 1E#]	p	1e#]	p	1c##]	p	8dd#L	p	I	=57	f##	M2/2
1AA#] 1E#]	p	1e#]	p	1c##]	p	8cc##	p	I	=57	f##	M2/2
1AA#] 1E#]	p	1e#]	p	1c##]	p	8b#	p	I	=57	f##	M2/2
1AA#] 1E#]	p	1e#]	p	1c##]	p	8a#J)	p	I	=57	f##	M2/2
=58	=58	=58	=58	=58	=58	=58	=58	=58	=58	=58	=58
[1BB# [1E#	p	[1e#	p	[1d#	p	(4.a#	p	V43(4)	=58	f##	M2/2
[1BB# [1E#	p	[1e#	p	[1d#	p	8g##)	p	V43	=58	f##	M2/2
[1BB# [1E#	p	[1e#	p	[1d#	p	2eee#	p	V43	=58	f##	M2/2
=59	=59	=59	=59	=59	=59	=59	=59	=59	=59	=59	=59
1BB#] 1E#]	p	1e#]	p	1d#]	p	2eee#	p	V43	=59	f##	M2/2
1BB#] 1E#]	p	1e#]	p	1d#]	p	2eee#	p	V43	=59	f##	M2/2
=60	=60	=60	=60	=60	=60	=60	=60	=60	=60	=60	=60
((1AA# 1E#	p	(2cc##	p p	(1c##	p	(2eee#	p	I	=60	f##	M2/2
((1AA# 1E#	p	(8cc##L)	p p	(1c##	p	2aaa#	p	I	=60	f##	M2/2
((1AA# 1E#	p	8b#	p p	(1c##	p	2aaa#	p	I	=60	f##	M2/2
((1AA# 1E#	p	8a#	p p	(1c##	p	2aaa#	p	I	=60	f##	M2/2
((1AA# 1E#	p	8g##J	p p	(1c##	p	2aaa#	p	I	=60	f##	M2/2
=61	=61	=61	=61	=61	=61	=61	=61	=61	=61	=61	=61
1AA#)) 1E#	p	8a#L	p p	1c##)	p	2cccc##	p	I	=61	f##	M2/2
1AA#)) 1E#	p	8g##	p p	1c##)	p	2cccc##	p	I	=61	f##	M2/2
1AA#)) 1E#	p	8f##	p p	1c##)	p	2cccc##	p	I	=61	f##	M2/2
1AA#)) 1E#	p	8e#J	p p	1c##)	p	2cccc##	p	I	=61	f##	M2/2
1AA#)) 1E#	p	8d#L	p p	1c##)	p	2eeee#)	p	I	=61	f##	M2/2
1AA#)) 1E#	p	8c##	p p	1c##)	p	2eeee#)	p	I	=61	f##	M2/2
1AA#)) 1E#	p	8B#	p p	1c##)	p	2eeee#)	p	I	=61	f##	M2/2
1AA#)) 1E#	p	8A#J)	p p	1c##)	p	2eeee#)	p	I	=61	f##	M2/2
=62	=62	=62	=62	=62	=62	=62	=62	=62	=62	=62	=62
[1BB# [1E#	p	(4.A#	p p	(1d#	p	(2eee#	p	V43	=62	f##	M2/2
[1BB# [1E#	p	8G##)	p p	(1d#	p	(2eee#	p	V43	=62	f##	M2/2
[1BB# [1E#	p	2ee#	p p	(1d#	p	2ggg##	p	V43	=62	f##	M2/2
=63	=63	=63	=63	=63	=63	=63	=63	=63	=63	=63	=63
1BB#] 1E#]	p	2ee#	p p	1d#)	p	2bbb#	p	V43	=63	f##	M2/2
1BB#] 1E#]	p	2ee#	p p	1d#)	p	2eeee#)	p	V43	=63	f##	M2/2
=64	=64	=64	=64	=64	=64	=64	=64	=64	=64	=64	=64
[1AA# [1E#	p	(2ee#	p	[2ccc##	p	(2eee#	p	I	=64	f##	M2/2
[1AA# [1E#	p	2cc##	p	(8ccc##L]	p	2aaa#	p	I	=64	f##	M2/2
[1AA# [1E#	p	2cc##	p	8bb#	p	2aaa#	p	I	=64	f##	M2/2
[1AA# [1E#	p	2cc##	p	8aa#	p	2aaa#	p	I	=64	f##	M2/2
[1AA# [1E#	p	2cc##	p	8gg##J	p	2aaa#	p	I	=64	f##	M2/2
=65	=65	=65	=65	=65	=65	=65	=65	=65	=65	=65	=65
1AA#] 1E#]	p	2a#	p	8aa#L	p	2cccc##	p	I	=65	f##	M2/2
1AA#] 1E#]	p	2a#	p	8gg##	p	2cccc##	p	I	=65	f##	M2/2
1AA#] 1E#]	p	2a#	p	8ff##	p	2cccc##	p	I	=65	f##	M2/2
1AA#] 1E#]	p	2a#	p	8ee#J	p	2cccc##	p	I	=65	f##	M2/2
1AA#] 1E#]	p	2e#)	p	8dd#L	p	2eeee#)	p	I	=65	f##	M2/2
1AA#] 1E#]	p	2e#)	p	8cc##	p	2eeee#)	p	I	=65	f##	M2/2
1AA#] 1E#]	p	2e#)	p	8b#	p	2eeee#)	p	I	=65	f##	M2/2
1AA#] 1E#]	p	2e#)	p	8a#J)	p	2eeee#)	p	I	=65	f##	M2/2
=66	=66	=66	=66	=66	=66	=66	=66	=66	=66	=66	=66
[1BB# [1E#	p	(2ee#	p	(4.a#	p	[2ddd#	p	V43	=66	f##	M2/2
[1BB# [1E#	p	(2ee#	p	8g##)	p	[2ddd#	p	V43	=66	f##	M2/2
[1BB# [1E#	p	2b#	p	2eee#	p	(8ddd#L]	p	V43	=66	f##	M2/2
[1BB# [1E#	p	2b#	p	2eee#	p	8ccc##	p	V43	=66	f##	M2/2
[1BB# [1E#	p	2b#	p	2eee#	p	8bb#	p	V43	=66	f##	M2/2
[1BB# [1E#	p	2b#	p	2eee#	p	8aa#J	p	V43	=66	f##	M2/2
=67	=67	=67	=67	=67	=67	=67	=67	=67	=67	=67	=67
1BB#] 1E#]	p	2g##	p	2eee#	p	8gg##L	p	V43	=67	f##	M2/2
1BB#] 1E#]	p	2g##	p	2eee#	p	8ff##	p	V43	=67	f##	M2/2
1BB#] 1E#]	p	2g##	p	2eee#	p	8ee#	p	V43	=67	f##	M2/2
1BB#] 1E#]	p	2g##	p	2eee#	p	8dd#J	p	V43	=67	f##	M2/2
1BB#] 1E#]	p	2e#)	p	2eee#	p	8ee#L	p	V43	=67	f##	M2/2
1BB#] 1E#]	p	2e#)	p	2eee#	p	8dd#	p	V43	=67	f##	M2/2
1BB#] 1E#]	p	2e#)	p	2eee#	p	8cc##	p	V43	=67	f##	M2/2
1BB#] 1E#]	p	2e#)	p	2eee#	p	8b#J)	p	V43	=67	f##	M2/2
=68	=68	=68	=68	=68	=68	=68	=68	=68	=68	=68	=68
((2C## 2E#	p	(2e#	p	(2eee#	p	(4.b#	p	I6	=68	f##	M2/2
((2C## 2E#	p	(2e#	p	(2eee#	p	8a#)	p	I6	=68	f##	M2/2
2C##)) 2E#	p	2e#)	p	2eee#)	p	2ggg#	p	V65/IV	=68	f##	M2/2
=69	=69	=69	=69	=69	=69	=69	=69	=69	=69	=69	=69
1c##	p	1e#	p	1a##X	p	2ggg#	p	#viio65/ii	=69	f##	M2/2
1c##	p	1e#	p	1a##X	p	2ggg#	p	#viio65/ii	=69	f##	M2/2
=70	=70	=70	=70	=70	=70	=70	=70	=70	=70	=70	=70
1f##	p	1a#	p	1cc#	p	(4.ee#	p	#viio65(7)/V	=70	f##	M2/2
1f##	p	1a#	p	1cc#	p	8dd##X)	p	#viio65/V	=70	f##	M2/2
1f##	p	1a#	p	1cc#	p	2aaa#	p	#viio65/V	=70	f##	M2/2
=71	=71	=71	=71	=71	=71	=71	=71	=71	=71	=71	=71
1cc#	p	1f##	p	1dd##X	p	2aaa#	p	#viio2/V	=71	f##	M2/2
1cc#	p	1f##	p	1dd##X	p	2aaa#	p	#viio2/V	=71	f##	M2/2
=72	=72	=72	=72	=72	=72	=72	=72	=72	=72	=72	=72
(2f#	p	(2g##	p	(2dd#	p	(2bbb#	p	viio2	=72	f##	M2/2
[2e#)	p	[2a#)	p	[2cc##)	p	4cccc##	p	V(64)	=72	f##	M2/2
[2e#)	p	[2a#)	p	[2cc##)	p	4dddd#	p	V(64)	=72	f##	M2/2
=73	=73	=73	=73	=73	=73	=73	=73	=73	=73	=73	=73
1e#]	p	2a#]	p	(2cc##]	p	2eeee#)	p	V(64)	=73	f##	M2/2
1e#]	p	(2b#	p	4dd#	p	(2gg##	p	V7	=73	f##	M2/2
1e#]	p	(2b#	p	4ee#)	p	(2gg##	p	V7	=73	f##	M2/2
=74	=74	=74	=74	=74	=74	=74	=74	=74	=74	=74	=74
[1a#	p	2cc##	p	(2ee#	p	2gg#	p	I[V7/IV	=74	f##	M2/2
[1a#	p	2a#	p	(2dd#)	p	2ff##	p	IV	=74	f##	M2/2
=75	=75	=75	=75	=75	=75	=75	=75	=75	=75	=75	=75
1a#_	p	2b#	p	(2dd#)	p	2gg##X	p	V43	=75	f##	M2/2
1a#_	p	[2cc##)	p	(2ee#)	p	2aa#	p	I	=75	f##	M2/2
=76	=76	=76	=76	=76	=76	=76	=76	=76	=76	=76	=76
(2a#]	p	1cc##]	p	[1ee#)	p	2gg#)	p	V/IV]	=76	f##	M2/2
(2a##X)	p	1cc##]	p	[1ee#)	p	[2ff##	p	iv.V65	=76	f##	M2/2
=77	=77	=77	=77	=77	=77	=77	=77	=77	=77	=77	=77
2.a##X)	p	1cc## 1ee#	p	4ee#]	p	1ff##_	p	iv.V65	=77	f##	M2/2
2.a##X)	p	1cc## 1ee#	p	(8f##L	p	1ff##_	p	iv.V65	=77	f##	M2/2
2.a##X)	p	1cc## 1ee#	p	8a##XJ	p	1ff##_	p	iv.V65	=77	f##	M2/2
2.a##X)	p	1cc## 1ee#	p	4cc##')	p	1ff##_	p	iv.V65	=77	f##	M2/2
(8F##L	p	1cc## 1ee#	p	(8a##L	p	1ff##_	p	iv.V65	=77	f##	M2/2
8A##XJ	p	1cc## 1ee#	p	8cc##J	p	1ff##_	p	iv.V65	=77	f##	M2/2
=78	=78	=78	=78	=78	=78	=78	=78	=78	=78	=78	=78
4B#')	ff	4f##'	ff ff	4dd#')	p	4ff##]	ff	i	=78	f##	M2/2
(8BB#L	ff	(8B#L	ff ff	(8b#L	p	(8b#L	ff	i	=78	f##	M2/2
8D#J	ff	8d#J	ff ff	8dd#J	p	8dd#J	ff	i	=78	f##	M2/2
4F##')	ff	4f##')	ff ff	4ff##')	p	4ff##')	ff	i	=78	f##	M2/2
(8G#L	ff	(8g#L	ff ff	(8gg#L	p	(8gg#L	ff	i	=78	f##	M2/2
8BB#J	ff	8B#J	ff ff	8b#J	p	8b#J	ff	i	=78	f##	M2/2
=79	=79	=79	=79	=79	=79	=79	=79	=79	=79	=79	=79
4AA##X')	ff	4A##X')	ff ff	4a##X')	p	4a##X')	ff	V6	=79	f##	M2/2
4r	ff	4r	ff ff	4r	p	4r	ff	V6	=79	f##	M2/2
2r	ff	2r	ff ff	2r	p	2r	ff	V6	=79	f##	M2/2
=80	=80	=80	=80	=80	=80	=80	=80	=80	=80	=80	=80
4r	ff	4r	ff ff	4r	p	4r	ff	V6	=80	f##	M2/2
(8AA##XL	ff	(8A##XL	ff ff	(8a##XL	p	(8a##XL	ff	V6	=80	f##	M2/2
8C##J	ff	8c##J	ff ff	8cc##J	p	8cc##J	ff	V6	=80	f##	M2/2
4F##')	ff	4f##')	ff ff	4ff##')	p	4ff##')	ff	V6	=80	f##	M2/2
(8G#L	ff	(8g#L	ff ff	(8gg#L	p	(8gg#L	ff	V6	=80	f##	M2/2
8AA##J	ff	8A##J	ff ff	8a##J	p	8a##J	ff	V6	=80	f##	M2/2
=81	=81	=81	=81	=81	=81	=81	=81	=81	=81	=81	=81
4BB#)	ff	4B#)	ff ff	4b#)	p	4b#)	ff	i	=81	f##	M2/2
8r	ff	8r	ff ff	8r	p	4r	ff	i	=81	f##	M2/2
8B#	ff	8b#	ff ff	8dd# 8ff##	p	4r	ff	i	=81	f##	M2/2
4B#	ff	4b#	ff ff	4dd# 4ff##	p	4bb#	ff	i	=81	f##	M2/2
8r	ff	8r	ff ff	8r	p	8r	ff	i	=81	f##	M2/2
8B#	ff	8b#	ff ff	8dd# 8ff##	p	8ccc##	ff	i	=81	f##	M2/2
=82	=82	=82	=82	=82	=82	=82	=82	=82	=82	=82	=82
4B#	ff	4b#	ff ff	4dd# 4ff##	p	4ddd#	ff	i	=82	f##	M2/2
8r	ff	8r	ff ff	8r	p	8r	ff	i	=82	f##	M2/2
8B#	ff	8b#	ff ff	8dd# 8ff##	p	8eee#	ff	i	=82	f##	M2/2
4B#	ff	4b#	ff ff	4dd# 4ff##	p	4fff##	ff	i	=82	f##	M2/2
8r	ff	8r	ff ff	8r	p	8r	ff	i	=82	f##	M2/2
8B#	ff	8b#	ff ff	8dd# 8ff##	p	8ggg#	ff	i	=82	f##	M2/2
=83	=83	=83	=83	=83	=83	=83	=83	=83	=83	=83	=83
4B#	ff	4b#	ff ff	4dd# 4ff##	p	4fff##	ff	i	=83	f##	M2/2
8r	ff	8r	ff ff	8r	p	4r	ff	i	=83	f##	M2/2
8B#	ff	8b#	ff ff	8dd# 8ff##	p	4r	ff	i	=83	f##	M2/2
4B#	ff	4b#	ff ff	4dd# 4ff##	p	4fff##	ff	i	=83	f##	M2/2
8r	ff	8r	ff ff	8r	p	8r	ff	i	=83	f##	M2/2
8B#	ff	8b#	ff ff	8dd# 8ff##	p	8eee#	ff	i	=83	f##	M2/2
=84	=84	=84	=84	=84	=84	=84	=84	=84	=84	=84	=84
8B#	ff	8b#	ff ff	8dd# 8ff##	p	16qqddd#/LL	ff	i	=84	f##	M2/2
8B#	ff	8b#	ff ff	8dd# 8ff##	p	16qqeee#/JJ	ff	i	=84	f##	M2/2
4B#	ff	4b#	ff ff	4dd# 4ff##	p	4ddd#	ff	i	=84	f##	M2/2
8r	ff	8r	ff ff	8r	p	8r	ff	i	=84	f##	M2/2
8B#	ff	8b#	ff ff	8dd# 8ff##	p	8ccc##	ff	i	=84	f##	M2/2
4B#	ff	4b#	ff ff	4dd# 4ff##	p	4ddd#	ff	i	=84	f##	M2/2
8r	ff	8r	ff ff	8r	p	8r	ff	i	=84	f##	M2/2
8B#	ff	8b#	ff ff	8dd# 8ff##	p	8bb#	ff	i	=84	f##	M2/2
=85	=85	=85	=85	=85	=85	=85	=85	=85	=85	=85	=85
4F##	ff	4a##X	ff ff	4cc## 4ff##	p	4ccc##	ff	V	=85	f##	M2/2
8r	ff	8r	ff ff	8r	p	4r	ff	V	=85	f##	M2/2
8B#	ff	8b#	ff ff	8dd# 8ff##	p	4r	ff	V	=85	f##	M2/2
4B#	ff	4b#	ff ff	4dd# 4ff##	p	4bb#	ff	i	=85	f##	M2/2
8r	ff	8r	ff ff	8r	p	8r	ff	i	=85	f##	M2/2
8B#	ff	8b#	ff ff	8dd# 8ff##	p	8ccc##	ff	i	=85	f##	M2/2
=86	=86	=86	=86	=86	=86	=86	=86	=86	=86	=86	=86
4B#	ff	4b#	ff ff	4dd# 4ff##	p	4ddd#	ff	i	=86	f##	M2/2
8r	ff	8r	ff ff	8r	p	8r	ff	i	=86	f##	M2/2
8B#	ff	8b#	ff ff	8dd# 8ff##	p	8eee#	ff	i	=86	f##	M2/2
4B#	ff	4b#	ff ff	4dd# 4ff##	p	4fff##	ff	i	=86	f##	M2/2
8r	ff	8r	ff ff	8r	p	8r	ff	i	=86	f##	M2/2
8B#	ff	8b#	ff ff	8dd# 8ff##	p	8ggg##	ff	i	=86	f##	M2/2
=87	=87	=87	=87	=87	=87	=87	=87	=87	=87	=87	=87
4c##	ff	4a#	ff ff	4cc## 4ff##	p	4aaa#	ff	V(64)/v	=87	f##	M2/2
8r	ff	8r	ff ff	8r	p	4r	ff	V(64)/v	=87	f##	M2/2
8c##	ff	8a#	ff ff	8cc## 8ff##	p	4r	ff	V(64)/v	=87	f##	M2/2
4cc##	ff	4a#	ff ff	4cc## 4ff##	p	4aaa#	ff	V(64)/v	=87	f##	M2/2
8r	ff	8r	ff ff	8r	p	8r	ff	V(64)/v	=87	f##	M2/2
8cc##	ff	8a#	ff ff	8cc## 8ff##	p	8fff##	ff	V(64)/v	=87	f##	M2/2
=88	=88	=88	=88	=88	=88	=88	=88	=88	=88	=88	=88
8cc##	ff	8a#	ff ff	8cc## 8ff##	p	16qqggg##/LL	ff	V2/V	=88	f##	M2/2
8cc##	ff	8a#	ff ff	8cc## 8ff##	p	16qqaaa#/JJ	ff	V2/V	=88	f##	M2/2
4cc##	ff	4b#	ff ff	4cc## 4ee##X	p	4ggg##	ff	V2/V	=88	f##	M2/2
8r	ff	8r	ff ff	8r	p	8r	ff	V2/V	=88	f##	M2/2
8cc##	ff	8a#	ff ff	8cc## 8ff##	p	8fff##	ff	V2/V	=88	f##	M2/2
4cc##	ff	4b#	ff ff	4cc## 4ee##	p	4ggg##	ff	V2/V	=88	f##	M2/2
8r	ff	8r	ff ff	8r	p	8r	ff	V2/V	=88	f##	M2/2
8cc##	ff	8b#	ff ff	8cc## 8ee##	p	8eee##X	ff	V2/V	=88	f##	M2/2
=89	=89	=89	=89	=89	=89	=89	=89	=89	=89	=89	=89
4f##	ff	4a#	ff ff	4cc## 4ff##	p	4fff##	ff	v	=89	f##	M2/2
8r	ff	8r	ff ff	8r	p	4r	ff	v	=89	f##	M2/2
8f##	ff	8b	ff ff	8cc## 8ff##	p	4r	ff	v	=89	f##	M2/2
4f##	ff	4b	ff ff	4cc## 4ff##	p	4ggg#	ff	V	=89	f##	M2/2
8r	ff	8r	ff ff	8r	p	8r	ff	V	=89	f##	M2/2
8f##	ff	8b	ff ff	8cc## 8ff##	p	8fff##	ff	V	=89	f##	M2/2
=90	=90	=90	=90	=90	=90	=90	=90	=90	=90	=90	=90
8f##	ff	8b	ff ff	8cc## 8ff##	p	16qqeee#/LL	ff	V7	=90	f##	M2/2
8f##	ff	8b	ff ff	8cc## 8ff##	p	16qqfff##/JJ	ff	V7	=90	f##	M2/2
4f##	ff	4b	ff ff	4cc## 4ff##	p	4eee#	ff	V7	=90	f##	M2/2
8r	ff	8r	ff ff	8r	p	8r	ff	V7	=90	f##	M2/2
8f##	ff	8b#X	ff ff	8ff##	p	8ddd#	ff	V7	=90	f##	M2/2
4f##	ff	4cc##	ff ff	4ff##	p	4eee#	ff	V7	=90	f##	M2/2
8r	ff	8r	ff ff	8r	p	8r	ff	V7	=90	f##	M2/2
8f##	ff	8b	ff ff	8ff##	p	8ccc##	ff	V7	=90	f##	M2/2
=91	=91	=91	=91	=91	=91	=91	=91	=91	=91	=91	=91
4f##	ff	4b#X	ff ff	4ff##	p	4ddd#	ff	i64	=91	f##	M2/2
8r	ff	8r	ff ff	8r	p	4r	ff	i64	=91	f##	M2/2
8F##	ff	8f## 8b#	ff ff	8ff##	p	4r	ff	i64	=91	f##	M2/2
4F##	ff	4f## 4cc##	ff ff	4ff##	p	4eee#	ff	V7	=91	f##	M2/2
8r	ff	8r	ff ff	8r	p	8r	ff	V7	=91	f##	M2/2
8F##	ff	8f## 8b#	ff ff	8ff##	p	8ddd#	ff	V7	=91	f##	M2/2
=92	=92	=92	=92	=92	=92	=92	=92	=92	=92	=92	=92
8F##	ff	8f## 8b#	ff ff	8ff##	p	16qqccc##/LL	ff	V	=92	f##	M2/2
8F##	ff	8f## 8b#	ff ff	8ff##	p	16qqddd#/JJ	ff	V	=92	f##	M2/2
4F##	ff	4e#	ff ff	4ff##	p	4ccc##	ff	V	=92	f##	M2/2
8r	ff	8r	ff ff	8r	p	8r	ff	V	=92	f##	M2/2
8F##	ff	8d#	ff ff	8ff##	p	8bb#	ff	V	=92	f##	M2/2
4F##	ff	4e#	ff ff	4ff##	p	4ccc##	ff	V7	=92	f##	M2/2
8r	ff	8r	ff ff	8r	p	8r	ff	V7	=92	f##	M2/2
8F##	ff	8c##	ff ff	8ff##	p	8aa##X	ff	V7	=92	f##	M2/2
=93	=93	=93	=93	=93	=93	=93	=93	=93	=93	=93	=93
4BB#	ff	4B# 4d#	ff ff	4b# 4ff##	p	4bb#	ff	i\\	=93	f##	M2/2
4r	ff	4r	ff ff	4r	p	4r	ff	i\\	=93	f##	M2/2
2r	ff	2r	ff ff	4gg#	p	2r	ff	i\\	=93	f##	M2/2
2r	ff	2r	ff ff	8r	f	2r	ff	i\\	=93	f##	M2/2
2r	ff	2r	ff ff	8ff##	f	2r	ff	i\\	=93	f##	M2/2
=94	=94	=94	=94	=94	=94	=94	=94	=94	=94	=94	=94
1r	ff	1r	ff ff	4ee#	f	1aa##X	sf	V2	=94	f##	M2/2
1r	ff	1r	ff ff	8r	f	1aa##X	sf	V2	=94	f##	M2/2
1r	ff	1r	ff ff	8dd#	f	1aa##X	sf	V2	=94	f##	M2/2
1r	ff	1r	ff ff	4ee#	f	1aa##X	sf	V2	=94	f##	M2/2
1r	ff	1r	ff ff	8r	f	1aa##X	sf	V2	=94	f##	M2/2
1r	ff	1r	ff ff	8cc##	f	1aa##X	sf	V2	=94	f##	M2/2
=95	=95	=95	=95	=95	=95	=95	=95	=95	=95	=95	=95
1r	ff	2r	ff ff	4dd#	f	1bb#	f	iv	=95	f##	M2/2
1r	ff	2r	ff ff	4r	f	1bb#	f	iv	=95	f##	M2/2
1r	ff	4gg#	ff ff	4ee#	f	1bb#	f	iv	=95	f##	M2/2
1r	ff	8r	f	8r	f	1bb#	f	iv	=95	f##	M2/2
1r	ff	8ff##	f	8dd#	f	1bb#	f	iv	=95	f##	M2/2
=96	=96	=96	=96	=96	=96	=96	=96	=96	=96	=96	=96
1r	ff	4ee#	f	4cc##	f	1ccc##	f	V43	=96	f##	M2/2
1r	ff	8r	f	8r	f	1ccc##	f	V43	=96	f##	M2/2
1r	ff	8dd#	f	8b#	f	1ccc##	f	V43	=96	f##	M2/2
1r	ff	4ee#	f	4cc##	f	1ccc##	f	V43	=96	f##	M2/2
1r	ff	8r	f	8r	f	1ccc##	f	V43	=96	f##	M2/2
1r	ff	8cc##	f	8a##X	f	1ccc##	f	V43	=96	f##	M2/2
=97	=97	=97	=97	=97	=97	=97	=97	=97	=97	=97	=97
1r	ff	4f##	f	4b#	f	4ddd#	f	i64	=97	f##	M2/2
1r	ff	4r	f	8r	f	4r	f	i64	=97	f##	M2/2
1r	ff	4r	f	8b#	f	4r	f	i64	=97	f##	M2/2
1r	ff	2r	f	4aa#	f	4ccc#	f	vii.viio7	=97	f##	M2/2
1r	ff	2r	f	8r	f	8r	f	vii.viio7	=97	f##	M2/2
1r	ff	2r	f	8gg#	f	8bb#	f	vii.viio7	=97	f##	M2/2
=98	=98	=98	=98	=98	=98	=98	=98	=98	=98	=98	=98
2r	ff	1d##X	sf	4ff##	f	4aa#	f	vii.viio7	=98	f##	M2/2
2r	ff	1d##X	sf	8r	f	8r	f	vii.viio7	=98	f##	M2/2
2r	ff	1d##X	sf	8b#	f	8gg#	f	vii.viio7	=98	f##	M2/2
4r	ff	1d##X	sf	4b#	f	4aa#	f	vii.viio7	=98	f##	M2/2
8r	ff	1d##X	sf	4r	f	8r	f	vii.viio7	=98	f##	M2/2
8B#	ff	1d##X	sf	4r	f	8ff##	f	vii.viio7	=98	f##	M2/2
=99||	=99||	=99||	=99||	=99||	=99||	=99||	=99||	=99||	=99||	=99||	=99||
4B#	f	1e#	f	4r	f	4gg#	f	i64	=98	e#	M2/2
4r	f	1e#	f	8r	f	4r	f	i64	=98	e#	M2/2
4r	f	1e#	f	8b#	f	4r	f	i64	=98	e#	M2/2
4r	f	1e#	f	4b#	f	4aa#	f	i64	=98	e#	M2/2
8r	f	1e#	f	4r	f	8r	f	i64	=98	e#	M2/2
8B#	f	1e#	f	4r	f	8gg#	f	i64	=98	e#	M2/2
=100	=100	=100	=100	=100	=100	=100	=100	=100	=100	=100	=100
4d##X	sf	1f##	f	4r	f	4ff##	f	V65	=100	e#	M2/2
4r	sf	1f##	f	8r	f	8r	f	V65	=100	e#	M2/2
4r	sf	1f##	f	8b#	f	8ee#	f	V65	=100	e#	M2/2
4r	sf	1f##	f	4b#	f	4ff##	f	V43	=100	e#	M2/2
8r	sf	1f##	f	4r	f	8r	f	V43	=100	e#	M2/2
8B#	sf	1f##	f	4r	f	8dd##X	f	V7	=100	e#	M2/2
=101	=101	=101	=101	=101	=101	=101	=101	=101	=101	=101	=101
4e#	sf	4g#	f	4r	f	4ee#	f	i	=101	e#	M2/2
4r	sf	4r	f	8r	f	8r	f	i	=101	e#	M2/2
4r	sf	4r	f	8gg#	f	8eee#	f	i	=101	e#	M2/2
4r	sf	4g#	f	4gg#	f	4eee#	f	i6	=101	e#	M2/2
8r	sf	8r	f	4r	f	4r	f	i6	=101	e#	M2/2
8E#	sf	8f##	f	4r	f	4r	f	i6	=101	e#	M2/2
=102	=102	=102	=102	=102	=102	=102	=102	=102	=102	=102	=102
4F##	sf	4e#	f	1a##X	sf	4r	f	V/V	=102	e#	M2/2
4r	sf	8r	f	1a##X	sf	8r	f	V/V	=102	e#	M2/2
4r	sf	8d#	f	1a##X	sf	8ggg#	f	V/V	=102	e#	M2/2
4r	sf	4e#	f	1a##X	sf	4ggg#	f	V/V	=102	e#	M2/2
8r	sf	8r	f	1a##X	sf	4r	f	V/V	=102	e#	M2/2
8F##	sf	8c##X	f	1a##X	sf	4r	f	V/V	=102	e#	M2/2
=103	=103	=103	=103	=103	=103	=103	=103	=103	=103	=103	=103
4F##	sf	4d#	f	1b#	f	4r	f	v64	=103	e#	M2/2
4r	sf	4r	f	1b#	f	8r	f	v64	=103	e#	M2/2
4r	sf	4r	f	1b#	f	8fff##	f	v64	=103	e#	M2/2
4r	sf	4e#	f	1b#	f	4fff##	f	v64	=103	e#	M2/2
8r	sf	8r	f	1b#	f	4r	f	v64	=103	e#	M2/2
8F##	sf	8d#	f	1b#	f	4r	f	v64	=103	e#	M2/2
=104	=104	=104	=104	=104	=104	=104	=104	=104	=104	=104	=104
4A##X	sf	4c##X	f	1cc##X	f	4r	f	V65/V	=104	e#	M2/2
4r	sf	8r	f	1cc##X	f	8r	f	V65/V	=104	e#	M2/2
4r	sf	8B#	f	1cc##X	f	8fff##	f	V65/V	=104	e#	M2/2
4r	sf	4c##	f	1cc##X	f	4fff##	f	V65/V	=104	e#	M2/2
8r	sf	8r	f	1cc##X	f	4r	f	V65/V	=104	e#	M2/2
8F##	sf	8A##X	f	1cc##X	f	4r	f	V65/V	=104	e#	M2/2
=105	=105	=105	=105	=105	=105	=105	=105	=105	=105	=105	=105
4BB#	sf	4f##	f	1dd#	f	4r	f	v	=105	e#	M2/2
4r	sf	4r	f	1dd#	f	8r	f	v	=105	e#	M2/2
4r	sf	4r	f	1dd#	f	8fff##	f	v	=105	e#	M2/2
4cc#	sf	2r	f	1dd#	f	4bb#	f	v	=105	e#	M2/2
8r	sf	2r	f	1dd#	f	4r	f	v	=105	e#	M2/2
8b#	sf	2r	f	1dd#	f	4r	f	v	=105	e#	M2/2
=106	=106	=106	=106	=106	=106	=106	=106	=106	=106	=106	=106
4a#	sf	4cc#	f	1dd##X	f	4r	f	V43(+9)	=106	e#	M2/2
8r	sf	8r	f	1dd##X	f	8r	f	V43(+9)	=106	e#	M2/2
8g#	sf	8b#	f	1dd##X	f	8bb#	f	V43(+9)	=106	e#	M2/2
4a#	sf	4cc#	f	1dd##X	f	4bb#	f	V43(+9)	=106	e#	M2/2
8r	sf	8r	f	1dd##X	f	4r	f	V43(+9)	=106	e#	M2/2
8f##	sf	8a#	f	1dd##X	f	4r	f	V43(+9)	=106	e#	M2/2
=107	=107	=107	=107	=107	=107	=107	=107	=107	=107	=107	=107
4g#	sf	4b#	f	1ee#	f	4r	f	i6	=107	e#	M2/2
4r	sf	4r	f	1ee#	f	8r	f	i6	=107	e#	M2/2
4r	sf	4r	f	1ee#	f	8bb#	f	i6	=107	e#	M2/2
4c#	sf	4a#	f	1ee#	f	4bb#	f	i6	=107	e#	M2/2
8r	sf	8r	f	1ee#	f	4r	f	i6	=107	e#	M2/2
8B#	sf	8g#	f	1ee#	f	4r	f	i6	=107	e#	M2/2
=108	=108	=108	=108	=108	=108	=108	=108	=108	=108	=108	=108
4A#	sf	4f##	f	1b# 1ff##	f	4r	f	V2	=108	e#	M2/2
8r	sf	8r	f	1b# 1ff##	f	8r	f	V2	=108	e#	M2/2
8G#	sf	8e#	f	1b# 1ff##	f	8bb#	f	V2	=108	e#	M2/2
4A#	sf	4f##	f	1b# 1ff##	f	4bb#	f	V2	=108	e#	M2/2
8r	sf	8r	f	1b# 1ff##	f	4r	f	V2	=108	e#	M2/2
8F##	sf	8d##X	f	1b# 1ff##	f	4r	f	V2	=108	e#	M2/2
=109	=109	=109	=109	=109	=109	=109	=109	=109	=109	=109	=109
4E#	sf	4e#	f	2b# 2gg#	f	4bb#	f	i	=109	e#	M2/2
4r	sf	8r	f	2b# 2gg#	f	8r	f	i	=109	e#	M2/2
4r	sf	8e#	f	2b# 2gg#	f	8eee#	f	i	=109	e#	M2/2
2r	sf	4e#	f	4.b# 4.gg##X	f	4fff#	f	iii.V7(+9)	=109	e#	M2/2
2r	sf	4r	f	4.b# 4.gg##X	f	8r	f	iii.V7(+9)	=109	e#	M2/2
2r	sf	4r	f	8ee#	f	8eee#	f	iii.V7(+9)	=109	e#	M2/2
=110	=110	=110	=110	=110	=110	=110	=110	=110	=110	=110	=110
1GG##X	f	4r	sf	[2.e# [2.b#	f	4ddd#	f	V65	=110	e#	M2/2
1GG##X	f	8r	sf	[2.e# [2.b#	f	8r	f	V65	=110	e#	M2/2
1GG##X	f	8ee#	sf	[2.e# [2.b#	f	8ccc#	f	V65	=110	e#	M2/2
1GG##X	f	4ee#	sf	[2.e# [2.b#	f	4ddd#	f	V65	=110	e#	M2/2
1GG##X	f	4r	sf	8e#L] 8b#]	f	8r	f	V65	=110	e#	M2/2
1GG##X	f	4r	sf	8bb#J	f	8bb#	f	V65	=110	e#	M2/2
=111	=111	=111	=111	=111	=111	=111	=111	=111	=111	=111	=111
1AA#	f	4r	f	[2.e# [2.cc#	f	4ccc#	f	i	=111	e#	M2/2
1AA#	f	8r	f	[2.e# [2.cc#	f	4r	f	i	=111	e#	M2/2
1AA#	f	8ee#	f	[2.e# [2.cc#	f	4r	f	i	=111	e#	M2/2
1AA#	f	4ee#	f	[2.e# [2.cc#	f	4ddd#	f	i	=111	e#	M2/2
1AA#	f	4r	f	8e#L] 8cc#]	f	8r	f	i	=111	e#	M2/2
1AA#	f	4r	f	8ccc#J	f	8ccc#	f	i	=111	e#	M2/2
=112	=112	=112	=112	=112	=112	=112	=112	=112	=112	=112	=112
1BB#	f	4r	f	[2.e# [2.dd#	f	4bb#	f	V43	=112	e#	M2/2
1BB#	f	8r	f	[2.e# [2.dd#	f	8r	f	V43	=112	e#	M2/2
1BB#	f	8ee#	f	[2.e# [2.dd#	f	8aa#	f	V43	=112	e#	M2/2
1BB#	f	4ee#	f	[2.e# [2.dd#	f	4bb#	f	V43	=112	e#	M2/2
1BB#	f	4r	f	8e#L] 8dd#]	f	8r	f	V43	=112	e#	M2/2
1BB#	f	4r	f	8ddd#J	f	8gg##X	f	V43	=112	e#	M2/2
=113	=113	=113	=113	=113	=113	=113	=113	=113	=113	=113	=113
1C#	f	4r	f	4c# 4a# 4ee#	f	4aa#	f	i6	=113	e#	M2/2
1C#	f	8r	f	4r	f	8r	f	i6	=113	e#	M2/2
1C#	f	8ee#	f	4r	f	8aaa#	f	i6	=113	e#	M2/2
1C#	f	4ee#	f	4ccc#	f	4aaa#	f	i6	=113	e#	M2/2
1C#	f	8r	f	8r	f	4r	f	i6	=113	e#	M2/2
1C#	f	8G#	f	8bb#	f	4r	f	i6	=113	e#	M2/2
=114	=114	=114	=114	=114	=114	=114	=114	=114	=114	=114	=114
1D##X	f sf	[2.F##	f	4aa#	f	4r	f	V65/V	=114	e#	M2/2
1D##X	f sf	[2.F##	f	8r	f	8r	f	V65/V	=114	e#	M2/2
1D##X	f sf	[2.F##	f	8gg#	f	8aaa#	f	V65/V	=114	e#	M2/2
1D##X	f sf	[2.F##	f	4aa#	f	4aaa#	f	V65/V	=114	e#	M2/2
1D##X	f sf	8F##L]	f	8r	f	4r	f	V65/V	=114	e#	M2/2
1D##X	f sf	8f##J	f	8b# 8ff##	f	4r	f	V65/V	=114	e#	M2/2
=115	=115	=115	=115	=115	=115	=115	=115	=115	=115	=115	=115
1E#	f sf	[2.G#	f	4b# 4gg#	f	4r	f	v	=115	e#	M2/2
1E#	f sf	[2.G#	f	8r	f	8r	f	v	=115	e#	M2/2
1E#	f sf	[2.G#	f	8b#	f	8ggg#	f	v	=115	e#	M2/2
1E#	f sf	[2.G#	f	4cc#	f	4aaa#	f	v	=115	e#	M2/2
1E#	f sf	8G#L]	f	8r	f	8r	f	v	=115	e#	M2/2
1E#	f sf	8g#J	f	8b#	f	8ggg#	f	v	=115	e#	M2/2
=116	=116	=116	=116	=116	=116	=116	=116	=116	=116	=116	=116
1F##	f sf	[2.A#	f	4b#	f	4fff##	f	vii.V43	=116	e#	M2/2
1F##	f sf	[2.A#	f	8r	f	8r	f	vii.V43	=116	e#	M2/2
1F##	f sf	[2.A#	f	8b#	f	8eee#	f	vii.V43	=116	e#	M2/2
1F##	f sf	[2.A#	f	4b#	f	4fff##	f	vii.V43	=116	e#	M2/2
1F##	f sf	8A#L]	f	8r	f	8r	f	vii.V43	=116	e#	M2/2
1F##	f sf	8a#J	f	8b#	f	8ddd##X	f	vii.V43	=116	e#	M2/2
=117	=117	=117	=117	=117	=117	=117	=117	=117	=117	=117	=117
4G#	f sf	4b#	f	4e#	f	4eee#	f	i	=117	e#	M2/2
(8E#L	f sf	(8e#L	f	(8e#L	f	(8e#L	f	i	=117	e#	M2/2
8G#J	f sf	8g#J	f	8g#J	f	8g#J	f	i	=117	e#	M2/2
4B#')	f sf	4b#')	f	4b#')	f	4b#')	f	i	=117	e#	M2/2
(8c#L	f sf	(8cc#L	f	(8cc#L	f	(8cc#L	f	i	=117	e#	M2/2
8E#J	f sf	8e#J	f	8e#J	f	8e#J	f	i	=117	e#	M2/2
=118	=118	=118	=118	=118	=118	=118	=118	=118	=118	=118	=118
4D##X')	f sf	4d##X')	f	4d##X')	f	4d##X')	f	V6	=118	e#	M2/2
4r	f sf	4r	f	4r	f	4r	f	V6	=118	e#	M2/2
2r	f sf	2r	f	2r	f	2r	f	V6	=118	e#	M2/2
=119	=119	=119	=119	=119	=119	=119	=119	=119	=119	=119	=119
4r	f sf	4r	f	4r	f	4r	f	V6	=119	e#	M2/2
(8E#L	f sf	(8e#L	f	(8e#L	f	(8e#L	f	i	=119	e#	M2/2
8G#J	f sf	8g#J	f	8g#J	f	8g#J	f	i	=119	e#	M2/2
4B#')	f sf	4b#')	f	4b#')	f	4b#')	f	i	=119	e#	M2/2
(8c#L	f sf	(8cc#L	f	(8cc#L	f	(8cc#L	f	i	=119	e#	M2/2
8E#J	f sf	8e#J	f	8e#J	f	8e#J	f	i	=119	e#	M2/2
=120	=120	=120	=120	=120	=120	=120	=120	=120	=120	=120	=120
4F##')	f sf	4f##')	f	4f##')	f	4f##')	f	II.V65	=120	e#	M2/2
(8F##L	f sf	(8f##L	f	(8f##L	f	(8f##L	f	II.V65	=120	e#	M2/2
8A#J	f sf	8a#J	f	8a#J	f	8a#J	f	II.V65	=120	e#	M2/2
4c#')	f sf	4cc#')	f	4cc#')	f	4cc#')	f	II.V65	=120	e#	M2/2
(8d#L	f sf	(8dd#L	f	(8dd#L	f	(8dd#L	f	II.V65	=120	e#	M2/2
8F##J	f sf	8f##J	f	8f##J	f	8f##J	f	II.V65	=120	e#	M2/2
=121	=121	=121	=121	=121	=121	=121	=121	=121	=121	=121	=121
4G#')	f sf	4g#')	f	4g#')	f	4g#')	f	I	=121	e#	M2/2
(8G#L	f sf	(8G#L	f	(8g#L	f	(8g#L	f	I	=121	e#	M2/2
8B#J	f sf	8B#J	f	8b#J	f	8b#J	f	I	=121	e#	M2/2
4d#')	f sf	4d#')	f	4dd#')	f	4dd#')	f	I	=121	e#	M2/2
(8e#L	f sf	(8e#L	f	(8ee#L	f	(8ee#L	f	I	=121	e#	M2/2
8G#J	f sf	8G#J	f	8g#J	f	8g#J	f	I	=121	e#	M2/2
=122	=122	=122	=122	=122	=122	=122	=122	=122	=122	=122	=122
4F##')	f sf	4F##')	f	4f##')	f	4f##')	f	V6	=122	e#	M2/2
4r	f sf	4r	f	4r	f	4r	f	V6	=122	e#	M2/2
2r	f sf	2r	f	2r	f	2r	f	V6	=122	e#	M2/2
=123	=123	=123	=123	=123	=123	=123	=123	=123	=123	=123	=123
4r	f sf	4r	f	4r	f	4r	f	V6	=123	e#	M2/2
(8F##L	f sf	(8F##L	f	(8f##L	f	(8f##L	f	V65	=123	e#	M2/2
8A#J	f sf	8A#J	f	8a#J	f	8a#J	f	V65	=123	e#	M2/2
4c#')	f sf	4c#')	f	4cc#')	f	4cc#')	f	V65	=123	e#	M2/2
(8d#L	f sf	(8d#L	f	(8dd#L	f	(8dd#L	f	V65	=123	e#	M2/2
8F##J	f sf	8F##J	f	8ccc#J)	f	8f##J	f	V65	=123	e#	M2/2
=124	=124	=124	=124	=124	=124	=124	=124	=124	=124	=124	=124
4G#)	p	4G#)	p	(8bb#L	p	4g#)	p	I	=124	e#	M2/2
4G#)	p	4G#)	p	8ccc#	p	4g#)	p	I	=124	e#	M2/2
4r	p	4r	p	8bb#	p	(8g#L	p	I	=124	e#	M2/2
4r	p	4r	p	8aa#J	p	8b#J	p	I	=124	e#	M2/2
4r	p	4r	p	8gg#L	p	4ee#')	p	vi43	=124	e#	M2/2
4r	p	4r	p	8ff##	p	4ee#')	p	vi43	=124	e#	M2/2
8b#L	p	8dd#L	p	8gg#	p	4r	p	vi43	=124	e#	M2/2
8b#J	p	8dd#J	p	8ee#J)	p	4r	p	vi43	=124	e#	M2/2
=125	=125	=125	=125	=125	=125	=125	=125	=125	=125	=125	=125
4a#	p	4cc#	p	(8ccc#L	p	4r	p	ii	=125	e#	M2/2
4a#	p	4cc#	p	8ddd#	p	4r	p	ii	=125	e#	M2/2
4r	p	4r	p	8ccc#	p	(8a#L	p	ii	=125	e#	M2/2
4r	p	4r	p	8bb#J	p	8cc#J	p	ii	=125	e#	M2/2
4r	p	4r	p	8aa#L	p	4ff##')	p	V2(+9)	=125	e#	M2/2
4r	p	4r	p	8gg#	p	4ff##')	p	V2(+9)	=125	e#	M2/2
8cc#L	p	8ee#L	p	8aa#	p	4r	p	V2(+9)	=125	e#	M2/2
8cc#J	p	8ee#J	p	8ff##J)	p	4r	p	V2(+9)	=125	e#	M2/2
=126	=126	=126	=126	=126	=126	=126	=126	=126	=126	=126	=126
4b#	p	4dd#	p	(8ddd#L	p	4r	p	I6	=126	e#	M2/2
4b#	p	4dd#	p	8eee#	p	4r	p	I6	=126	e#	M2/2
4r	p	4r	p	8ddd#	p	(8b#L	p	I6	=126	e#	M2/2
4r	p	4r	p	8ccc#J	p	8dd#J	p	I6	=126	e#	M2/2
4r	p	4r	p	8bb#L	p	4gg##X')	p	#viio6/ii	=126	e#	M2/2
4r	p	4r	p	8aa#	p	4gg##X')	p	#viio6/ii	=126	e#	M2/2
8b#L	p	8dd#L	p	8bb#	p	4r	p	#viio6/ii	=126	e#	M2/2
8b#J	p	8dd#J	p	8gg##XJ)	p	4r	p	#viio6/ii	=126	e#	M2/2
=127	=127	=127	=127	=127	=127	=127	=127	=127	=127	=127	=127
4a#	p	4cc#	p	(8eee#L	p	4r	p	ii	=127	e#	M2/2
4a#	p	4cc#	p	8fff#	p	4r	p	ii	=127	e#	M2/2
4r	p	4r	p	8eee#	p	(8cc#L	p	ii	=127	e#	M2/2
4r	p	4r	p	8ddd#J	p	8ee#J	p	ii	=127	e#	M2/2
4r	p	4r	p	8ccc#L	p	4aa#')	p	ii	=127	e#	M2/2
4r	p	4r	p	8bb#	p	4aa#')	p	ii	=127	e#	M2/2
8A#L	p	8cc#L	p	8ccc#	p	4r	p	ii	=127	e#	M2/2
8A#J	p	8cc#J	p	8aa#J)	p	4r	p	ii	=127	e#	M2/2
=128	=128	=128	=128	=128	=128	=128	=128	=128	=128	=128	=128
4E#	p	4G##X	p	8ddd#L	p	4r	p	V7/ii	=128	e#	M2/2
4E#	p	4G##X	p	8ccc#	p	4r	p	V7/ii	=128	e#	M2/2
4r	p	4r	p	8bb#	p	(8g##XL	p	V7/ii	=128	e#	M2/2
4r	p	4r	p	8aa#J	p	8ee#J	p	V7/ii	=128	e#	M2/2
4r	p	4r	p	8gg##XL	p	4bb#')	p	V7/ii	=128	e#	M2/2
4r	p	4r	p	8ff#	p	4bb#')	p	V7/ii	=128	e#	M2/2
8E#L	p	8b#L	p	8ee#	p	4r	p	V7/ii	=128	e#	M2/2
8E#J	p	8b#J	p	8dd#J	p	4r	p	V7/ii	=128	e#	M2/2
=129	=129	=129	=129	=129	=129	=129	=129	=129	=129	=129	=129
4AA#	p	4A#	p	8cc#L	p	4r	p	ii	=129	e#	M2/2
4AA#	p	4A#	p	8b#	p	4r	p	ii	=129	e#	M2/2
4r	p	4r	p	8a#	p	(8a#L	p	ii	=129	e#	M2/2
4r	p	4r	p	8g#J	p	8ee#J	p	ii	=129	e#	M2/2
4r	p	4r	p	8f#L	p	4ccc#')	p	ii	=129	e#	M2/2
4r	p	4r	p	8e#	p	4ccc#')	p	ii	=129	e#	M2/2
8a#L	p	8cc#L	p	8d#	p	4r	p	ii	=129	e#	M2/2
8a#J	p	8cc#J	p	8c#J	p	4r	p	ii	=129	e#	M2/2
=130	=130	=130	=130	=130	=130	=130	=130	=130	=130	=130	=130
4f##	p	4a#	p	4r	p	(8aa#L	p	V6	=130	e#	M2/2
4f##	p	4a#	p	4r	p	8bb#	p	V6	=130	e#	M2/2
4r	p	4r	p	(8f##XL	p	8aa#	p	V6	=130	e#	M2/2
4r	p	4r	p	8a#J	p	8gg#J	p	V6	=130	e#	M2/2
4r	p	4r	p	4dd#')	p	8ff##L	p	V43	=130	e#	M2/2
4r	p	4r	p	4dd#')	p	8ee#	p	V43	=130	e#	M2/2
8a#L	p	8cc#L	p	4r	p	8ff##	p	V43	=130	e#	M2/2
8a#J	p	8cc#J	p	4r	p	8dd#J)	p	V43	=130	e#	M2/2
=131	=131	=131	=131	=131	=131	=131	=131	=131	=131	=131	=131
4g#	p	4b#	p	4r	p	(8bb#L	p	I	=131	e#	M2/2
4g#	p	4b#	p	4r	p	8ccc#	p	I	=131	e#	M2/2
4r	p	4r	p	(8g#L	p	8bb#	p	I	=131	e#	M2/2
4r	p	4r	p	8b#J	p	8aa#J	p	I	=131	e#	M2/2
4r	p	4r	p	4ee#')	p	8gg#L	p	vi43	=131	e#	M2/2
4r	p	4r	p	4ee#')	p	8ff##	p	vi43	=131	e#	M2/2
8b#L	p	8dd#L	p	4r	p	8gg#	p	vi43	=131	e#	M2/2
8b#J	p	8dd#J	p	4r	p	8ee#J)	p	vi43	=131	e#	M2/2
=132	=132	=132	=132	=132	=132	=132	=132	=132	=132	=132	=132
4a#	p	4cc#	p	4r	p	(8ccc#L	p	ii	=132	e#	M2/2
4a#	p	4cc#	p	4r	p	8ddd#	p	ii	=132	e#	M2/2
4r	p	4r	p	(8a#L	p	8ccc#	p	ii	=132	e#	M2/2
4r	p	4r	p	8cc#J	p	8bb#J	p	ii	=132	e#	M2/2
4r	p	4r	p	4ff##')	p	8aa#L	p	V7	=132	e#	M2/2
4r	p	4r	p	4ff##')	p	8ff##	p	V7	=132	e#	M2/2
8d#L	p	8c#L	p	4r	p	8gg#	p	V7	=132	e#	M2/2
8d#J	p	8c#J	p	4r	p	8ff##J)	p	V7	=132	e#	M2/2
=133	=133	=133	=133	=133	=133	=133	=133	=133	=133	=133	=133
4G#	p	4b#	p	4r	p	(8ddd#L	p	I	=133	e#	M2/2
4G#	p	4b#	p	4r	p	8eee#	p	I	=133	e#	M2/2
4r	p	4r	p	(8b#L	p	8ddd#	p	I	=133	e#	M2/2
4r	p	4r	p	8dd#J	p	8ccc#J	p	I	=133	e#	M2/2
4r	p	4r	p	4gg#')	p	8bb#L	p	I	=133	e#	M2/2
4r	p	4r	p	4gg#')	p	8aa#	p	I	=133	e#	M2/2
8G#L	p	8B#L	p	4r	p	8bb#	p	I	=133	e#	M2/2
8G#J	p	8B#J	p	4r	p	8gg#J)	p	I	=133	e#	M2/2
=134	=134	=134	=134	=134	=134	=134	=134	=134	=134	=134	=134
4D#	p	4a#	p	4r	p	8ccc#L	p	V7	=134	e#	M2/2
4D#	p	4a#	p	4r	p	8bb#	p	V7	=134	e#	M2/2
4r	p	4r	p	(8f##L	p	8aa#	p	V7	=134	e#	M2/2
4r	p	4r	p	8dd#J	p	8gg#J	p	V7	=134	e#	M2/2
4r	p	4r	p	4aa#')	p	8ff##L	p	V7	=134	e#	M2/2
4r	p	4r	p	4aa#')	p	8ee#	p	V7	=134	e#	M2/2
8D#L	p	8A#L	p	4r	p	8dd#	p	V7	=134	e#	M2/2
8D#J	p	8A#J	p	4r	p	8cc#J	p	V7	=134	e#	M2/2
=135	=135	=135	=135	=135	=135	=135	=135	=135	=135	=135	=135
4GG#	p	4B#	p	4r	p	8b#L	p	I	=135	e#	M2/2
4GG#	p	4B#	p	4r	p	8a#	p	I	=135	e#	M2/2
4r	p	4r	p	(8g#L	p	8g#	p	I	=135	e#	M2/2
4r	p	4r	p	8dd#J	p	8f##J	p	I	=135	e#	M2/2
4r	p	4r	p	4bb#')	p	8e#L	p	I	=135	e#	M2/2
4r	p	4r	p	4bb#')	p	8d#	p	I	=135	e#	M2/2
8g#L	p	8d#L 8b#	p	4r	p	8c#	p	I	=135	e#	M2/2
8g#J	p	8d#J 8b#	p	4r	p	8b#J	p	I	=135	e#	M2/2
=136	=136	=136	=136	=136	=136	=136	=136	=136	=136	=136	=136
4e##X	p	4b#	p	(8gg##XL	p	4r	p	i.#viio	=136	e#	M2/2
4e##X	p	4b#	p	8aa#	p	4r	p	i.#viio	=136	e#	M2/2
4r	p	4r	p	8gg##	p	(8e##XL	p	i.#viio	=136	e#	M2/2
4r	p	4r	p	8ff##J)	p	8cc##XJ	p	i.#viio	=136	e#	M2/2
4r	p	4r	p	(8ff##L	p	4gg##X')	p	i.#viio	=136	e#	M2/2
4r	p	4r	p	8ee##X	p	4gg##X')	p	i.#viio	=136	e#	M2/2
8c##XL	p	8b#L	p	8gg##	p	4r	p	i.#viio	=136	e#	M2/2
8c##J	p	8b#J	p	8ee##J)	p	4r	p	i.#viio	=136	e#	M2/2
=137	=137	=137	=137	=137	=137	=137	=137	=137	=137	=137	=137
4F##	p	4a#	p	(8aa#L	p	4r	p	i	=137	e#	M2/2
4F##	p	4a#	p	8bb#	p	4r	p	i	=137	e#	M2/2
4r	p	4r	p	8aa#	p	(8f##L	p	i	=137	e#	M2/2
4r	p	4r	p	8gg##XJ)	p	8cc##XJ	p	i	=137	e#	M2/2
4r	p	4r	p	(8gg##L	p	4aa#')	p	i	=137	e#	M2/2
4r	p	4r	p	8ff##	p	4aa#')	p	i	=137	e#	M2/2
8F##L	p	8a#L	p	8aa#	p	4r	p	i	=137	e#	M2/2
8F##J	p	8a#J	p	8ff##J)	p	4r	p	i	=137	e#	M2/2
=138	=138	=138	=138	=138	=138	=138	=138	=138	=138	=138	=138
4C##X	p	4g##X	p	(8bb#L	p	4r	p	V7	=138	e#	M2/2
4C##X	p	4g##X	p	8ccc##X	p	4r	p	V7	=138	e#	M2/2
4r	p	4r	p	8bb#	p	(8g##XL	p	V7	=138	e#	M2/2
4r	p	4r	p	8aa#J)	p	8cc##XJ	p	V7	=138	e#	M2/2
4r	p	4r	p	(8aa#L	p	4bb#')	p	V7	=138	e#	M2/2
4r	p	4r	p	8gg##X	p	4bb#')	p	V7	=138	e#	M2/2
8C##L	p	8e##XL	p	8bb#	p	4r	p	V7	=138	e#	M2/2
8C##J	p	8e##J	p	8gg##J)	p	4r	p	V7	=138	e#	M2/2
=139	=139	=139	=139	=139	=139	=139	=139	=139	=139	=139	=139
4AA#	p	4f##	p	8ccc##XL	p	4r	p	i6	=139	e#	M2/2
4AA#	p	4f##	p	8bb#	p	4r	p	i6	=139	e#	M2/2
4r	p	4r	p	8aa#	p	(8a#L	p	i6	=139	e#	M2/2
4r	p	4r	p	8gg##XJ	p	8ff##J	p	i6	=139	e#	M2/2
4r	p	4r	p	8ff##L	p	4ccc##X')	p	i6	=139	e#	M2/2
4r	p	4r	p	8ee#	p	4ccc##X')	p	i6	=139	e#	M2/2
8C##XL	p	8f##L 8a#	p	8dd#	p	4r	p	i6	=139	e#	M2/2
8C##J	p	8f##J 8a#	p	8cc##XJ	p	4r	p	i6	=139	e#	M2/2
=140||	=140||	=140||	=140||	=140||	=140||	=140||	=140||	=140||	=140||	=140||	=140||
4C##X	p	4e##X	p	8b#L	p	4r	p	V[V7	=139	f##	M2/2
4C##X	p	4e##X	p	8a#	p	4r	p	V[V7	=139	f##	M2/2
4r	p	4r	p	8g##X	p	(8cc##XL	p	V[V7	=139	f##	M2/2
4r	p	4r	p	8f##J	p	8gg##J	p	V[V7	=139	f##	M2/2
4r	p	4r	p	8e##XL	p	4eee##X')	p	V[V7	=139	f##	M2/2
4r	p	4r	p	8d#	p	4eee##X')	p	V[V7	=139	f##	M2/2
8C##L	p	8g##L	p	8c##X	p	4r	p	V[V7	=139	f##	M2/2
8C##J	p	8g##J	p	8b#J	p	4r	p	V[V7	=139	f##	M2/2
=141	=141	=141	=141	=141	=141	=141	=141	=141	=141	=141	=141
4C##	p	4f##	p	8a#L	p	4r	p	i	=141	f##	M2/2
4C##	p	4f##	p	8b#	p	4r	p	i	=141	f##	M2/2
4r	p	4r	p	8cc##	p	(8cc##L	p	i	=141	f##	M2/2
4r	p	4r	p	8dd#J	p	8aa#J	p	i	=141	f##	M2/2
4r	p	4r	p	8ee#L	p	4fff##')	p	i	=141	f##	M2/2
4r	p	4r	p	8ff##	p	4fff##')	p	i	=141	f##	M2/2
8C##L	p	8f##L	p	8gg##	p	4r	p	i	=141	f##	M2/2
8C##J	p	8f##J	p	8aa#J	p	4r	p	i	=141	f##	M2/2
=142	=142	=142	=142	=142	=142	=142	=142	=142	=142	=142	=142
4C##	p	8a#L	p	8ccc##L	p	4r	p	i	=142	f##	M2/2
4C##	p	8g##	p	8bb#	p	4r	p	i	=142	f##	M2/2
4r	p	8f##	p	8aa#	p	(8cc##L	p	i	=142	f##	M2/2
4r	p	8e#J	p	8gg##J	p	8aa#J	p	i	=142	f##	M2/2
4r	p	8d#L	p	8ff##L	p	4fff##')	p	i	=142	f##	M2/2
4r	p	8c##	p	8ee#	p	4fff##')	p	i	=142	f##	M2/2
8C##L	p	8B#	p	8dd#	p	4r	p	i	=142	f##	M2/2
8C##J	p	8A#J	p	8cc##J	p	4r	p	i	=142	f##	M2/2
=143	=143	=143	=143	=143	=143	=143	=143	=143	=143	=143	=143
4C##	p	8G##L	p	8b#L	p	4r	p	V7	=143	f##	M2/2
4C##	p	8A#	p	8a#	p	4r	p	V7	=143	f##	M2/2
4r	p	8B#	p	8g##	p	(8cc##L	p	V7	=143	f##	M2/2
4r	p	8c##J	p	8f##J	p	8bb#J	p	V7	=143	f##	M2/2
4r	p	8c##L	p	8e##XL	p	4ggg##')	p	V7	=143	f##	M2/2
4r	p	8e##X	p	8d#	p	4ggg##')	p	V7	=143	f##	M2/2
8C##L	p	8f##	p	8c##	p	4r	p	V7	=143	f##	M2/2
8C##J	p	8g##J	p	8b#J	p	4r	p	V7	=143	f##	M2/2
=144	=144	=144	=144	=144	=144	=144	=144	=144	=144	=144	=144
4C##	p	8f##L	p	8a#L	p	8aaa#L	p	i	=144	f##	M2/2
4C##	p	8g##	p	8b#	p	8ggg##	p	i	=144	f##	M2/2
4r	p	8a#	p	8cc##	p	8fff##	p	i	=144	f##	M2/2
4r	p	8b#J	p	8dd#J	p	8eee#J	p	i	=144	f##	M2/2
4r	p	8cc##L	p	8ee#L	p	8ddd#L	p	i	=144	f##	M2/2
4r	p	8dd#	p	8ff##	p	8ccc##	p	i	=144	f##	M2/2
8C##L	p	8ee#	p	8gg##	p	8bb#	p	i	=144	f##	M2/2
8C##J	p	8ff##J	p	8aa#J	p	8aa#J	p	i	=144	f##	M2/2
=145	=145	=145	=145	=145	=145	=145	=145	=145	=145	=145	=145
4C##	p	8A#L	p	4r	p	(8ccc##L	p	i	=145	f##	M2/2
4C##	p	8B#	p	4r	p	8ddd#	p	i	=145	f##	M2/2
4r	p	8c##	p	(8cc##L	p	8ccc##	p	i	=145	f##	M2/2
4r	p	8d#J	p	8aa#J	p	8bb#J	p	i	=145	f##	M2/2
4r	p	8e#L	p	4fff##')	p	8ccc##L	p	i	=145	f##	M2/2
4r	p	8f##	p	4fff##')	p	8aa#	p	i	=145	f##	M2/2
8C##L	p	8g##	p	4r	p	8bb#	p	i	=145	f##	M2/2
8C##J	p	8a#J	p	4r	p	8aa#J)	p	i	=145	f##	M2/2
=146	=146	=146	=146	=146	=146	=146	=146	=146	=146	=146	=146
4C##	p	8G##L	p	4r	p	(8bb#L	p	V7	=146	f##	M2/2
4C##	p	8A#	p	4r	p	8ccc##	p	V7	=146	f##	M2/2
4r	p	8B#	p	(8cc##L	p	8bb#	p	V7	=146	f##	M2/2
4r	p	8c##J	p	8bb#J	p	8aa#J	p	V7	=146	f##	M2/2
4r	p	(8c##L	p	4ggg##')	p	8bb#L	p	V7	=146	f##	M2/2
4r	p	8B#	p	4ggg##')	p	8gg##	p	V7	=146	f##	M2/2
8C##L	p	8c##	p	4r	p	8aa#	p	V7	=146	f##	M2/2
8C##J	p	8B#J)	p	4r	p	8gg##J)	p	V7	=146	f##	M2/2
=147	=147	=147	=147	=147	=147	=147	=147	=147	=147	=147	=147
4C##	p	8F##L	p	4r	p	(8aa#L	p	i	=147	f##	M2/2
4C##	p	8G##	p	4r	p	8bb#	p	i	=147	f##	M2/2
4r	p	8A#	p	(8cc##L	p	8aa#	p	i	=147	f##	M2/2
4r	p	8B#J	p	8aa#J	p	8gg##J	p	i	=147	f##	M2/2
4r	p	8c##L	p	4fff##')	p	8aa#L	p	i	=147	f##	M2/2
4r	p	8d#	p	4fff##')	p	8ff##	p	i	=147	f##	M2/2
8C##L	p	8e#	p	4r	]]	8gg##	p	i	=147	f##	M2/2
8C##J	]]	8f##J	]]	4r	]]	8ff##J)	]]	i	=147	f##	M2/2
=148	=148	=148	=148	=148	=148	=148	=148	=148	=148	=148	=148
(2C##	p < <	(8G##L	p p < <	(8e##XL	< <	[1cc##	p < <	V2	=148	f##	M2/2
(2C##	p < <	8F##	p p < <	8f##	< <	[1cc##	p < <	V2	=148	f##	M2/2
(2C##	p < <	8G##	p p < <	8e##	< <	[1cc##	p < <	V2	=148	f##	M2/2
(2C##	p < <	8F##J	p p < <	8f##J	< <	[1cc##	p < <	V2	=148	f##	M2/2
[2BB#)	p < <	8G##L	p p < <	8e##L	< <	[1cc##	p < <	V2	=148	f##	M2/2
[2BB#)	p < <	8F##	p p < <	8f##	< <	[1cc##	p < <	V2	=148	f##	M2/2
[2BB#)	p < <	8G##	p p < <	8e##	< <	[1cc##	p < <	V2	=148	f##	M2/2
[2BB#)	p < <	8F##J	p p < <	8f##J	< <	[1cc##	p < <	V2	=148	f##	M2/2
=149	=149	=149	=149	=149	=149	=149	=149	=149	=149	=149	=149
1BB#_	[[	8G##L	p p < <	8e##XL	< <	(8cc##L]	p < <	V2	=149	f##	M2/2
1BB#_	[[	8F##	p p < <	8f##	< <	8dd#	p < <	V2	=149	f##	M2/2
1BB#_	[[	8G##	p p < <	8e##	< <	8cc##	p < <	V2	=149	f##	M2/2
1BB#_	[[	8F##J	p p < <	8f##J	< <	8dd#J	p < <	V2	=149	f##	M2/2
1BB#_	[[	8G##L	p p < <	8e##L	< <	8cc##L	p < <	V2	=149	f##	M2/2
1BB#_	[[	8F##	p p < <	8f##	< <	8dd#	p < <	V2	=149	f##	M2/2
1BB#_	[[	8G##	p p < <	8e##	< <	8cc##	p < <	V2	=149	f##	M2/2
1BB#_	[[	8F##J	[[	8f##J	[[	8dd#J	[[	V2	=149	f##	M2/2
=150	=150	=150	=150	=150	=150	=150	=150	=150	=150	=150	=150
1BB#]	>]	8G##L	>	8e##XL	>	8cc##L	>	V2	=150	f##	M2/2
1BB#]	>]	8F##	>	8f##	>	8dd#	>	V2	=150	f##	M2/2
1BB#]	>]	8G##	>	8e##	>	8cc##	>	V2	=150	f##	M2/2
1BB#]	>]	8F##J	>	8f##J	>	8dd#J	>	V2	=150	f##	M2/2
1BB#]	>]	8G##L	>	8e##L	>	8cc##L	>	V2	=150	f##	M2/2
1BB#]	>]	8F##	>	8f##	>	8dd#	>	V2	=150	f##	M2/2
1BB#]	>]	8G##	>	8e##	>	8cc##	>	V2	=150	f##	M2/2
1BB#]	>]	8A#J)	]]	8f##J)	]]	8dd#J)	]]	V2	=150	f##	M2/2
=151	=151	=151	=151	=151	=151	=151	=151	=151	=151	=151	=151
(2C##	<	(8G##L	<	(8e##XL	<	2cc##	<	V7	=151	f##	M2/2
(2C##	<	8F##	<	8f##	<	2cc##	<	V7	=151	f##	M2/2
(2C##	<	8G##	<	8e##	<	2cc##	<	V7	=151	f##	M2/2
(2C##	<	8F##J	<	8f##J	<	2cc##	<	V7	=151	f##	M2/2
[2BB#)	<	8G##L	<	8e##L	<	[2ccc##	<	V2	=151	f##	M2/2
[2BB#)	<	8F##	<	8f##	<	[2ccc##	<	V2	=151	f##	M2/2
[2BB#)	<	8G##	<	8e##	<	[2ccc##	<	V2	=151	f##	M2/2
[2BB#)	<	8F##J	<	8f##J	<	[2ccc##	<	V2	=151	f##	M2/2
=152	=152	=152	=152	=152	=152	=152	=152	=152	=152	=152	=152
1BB#_	[[	8G##L	<	8e##XL	<	(8ccc##L]	<	V2	=152	f##	M2/2
1BB#_	[[	8F##	<	8f##	<	8ddd#	<	V2	=152	f##	M2/2
1BB#_	[[	8G##	<	8e##	<	8ccc##	<	V2	=152	f##	M2/2
1BB#_	[[	8F##J	<	8f##J	<	8ddd#J	<	V2	=152	f##	M2/2
1BB#_	[[	8G##L	<	8e##L	<	8ccc##L	<	V2	=152	f##	M2/2
1BB#_	[[	8F##	<	8f##	<	8ddd#	<	V2	=152	f##	M2/2
1BB#_	[[	8G##	<	8e##	<	8ccc##	<	V2	=152	f##	M2/2
1BB#_	[[	8F##J	[[	8f##J	[[	8ddd#J	[[	V2	=152	f##	M2/2
=153	=153	=153	=153	=153	=153	=153	=153	=153	=153	=153	=153
1BB#]	>]	8G##L	>	8e##XL	>	8ccc##L	>	V2	=153	f##	M2/2
1BB#]	>]	8F##	>	8f##	>	8ddd#	>	V2	=153	f##	M2/2
1BB#]	>]	8G##	>	8e##	>	8ccc##	>	V2	=153	f##	M2/2
1BB#]	>]	8F##J	>	8f##J	>	8ddd#J	>	V2	=153	f##	M2/2
1BB#]	>]	8G##L	>	8e##L	>	8ccc##L	>	V2	=153	f##	M2/2
1BB#]	>]	8F##	>	8f##	>	8ddd#	>	V2	=153	f##	M2/2
1BB#]	>]	8G##	>	8e##	>	8ccc##	>	V2	=153	f##	M2/2
1BB#]	>]	8A#J)	]]	8f##J)	]]	8ddd#J)	]]	V2	=153	f##	M2/2
=154	=154	=154	=154	=154	=154	=154	=154	=154	=154	=154	=154
(2C##	p	(8G##L	p	(8e##XL	p	(8ccc##L	p	V7	=154	f##	M2/2
(2C##	p	8F##	p	8f##	p	8ddd#	p	V7	=154	f##	M2/2
(2C##	p	8G##	p	8e##	p	8ccc##	p	V7	=154	f##	M2/2
(2C##	p	8F##J	p	8f##J	p	8ddd#J	p	V7	=154	f##	M2/2
2BB#	p	8G##L	p	8e##L	p	8ccc##L	p	V2	=154	f##	M2/2
2BB#	p	8F##	p	8f##	p	8ddd#	p	V2	=154	f##	M2/2
2BB#	p	8G##	p	8e##	p	8ccc##	p	V2	=154	f##	M2/2
2BB#	p	8A#J	p	8f##J	p	8ddd#J	p	V2	=154	f##	M2/2
=155	=155	=155	=155	=155	=155	=155	=155	=155	=155	=155	=155
2C##	pp	8G##L	pp	8e##XL	pp	8ccc##L	pp	V7	=155	f##	M2/2
2C##	pp	8F##	pp	8f##	pp	8ddd#	pp	V7	=155	f##	M2/2
2C##	pp	8G##	pp	8e##	pp	8ccc##	pp	V7	=155	f##	M2/2
2C##	pp	8F##J	pp	8f##J	pp	8ddd#J	pp	V7	=155	f##	M2/2
2BB#	pp	8G##L	pp	8e##L	pp	8ccc##L	pp	V2	=155	f##	M2/2
2BB#	pp	8F##	pp	8f##	pp	8ddd#	pp	V2	=155	f##	M2/2
2BB#	pp	8G##	pp	8e##	pp	8ccc##	pp	V2	=155	f##	M2/2
2BB#	pp	8A#J	pp	8f##J	pp	8ddd#J	pp	V2	=155	f##	M2/2
=156	=156	=156	=156	=156	=156	=156	=156	=156	=156	=156	=156
2C##	pp	8G##L	pp	8e##XL	pp	8ccc##L	pp	V7	=156	f##	M2/2
2C##	pp	8F##	pp	8f##	pp	8ddd#	pp	V7	=156	f##	M2/2
2C##	pp	8G##	pp	8e##	pp	8ccc##	pp	V7	=156	f##	M2/2
2C##	pp	8F##J	pp	8f##J	pp	8ddd#J	pp	V7	=156	f##	M2/2
2BB#)	pp	8G##L	pp	8e##L	pp	8ccc##L	pp	V2	=156	f##	M2/2
2BB#)	pp	8F##	pp	8f##	pp	8ddd#	pp	V2	=156	f##	M2/2
2BB#)	pp	8G##	pp	8e##	pp	8ccc##	pp	V2	=156	f##	M2/2
2BB#)	pp	8A#J)	pp	8f##J)	pp	8ddd#J)	pp	V2	=156	f##	M2/2
=157	=157	=157	=157	=157	=157	=157	=157	=157	=157	=157	=157
(4C##	pp	(8G##L	pp	(8e##XL	pp	(8ccc##L	pp	V7	=157	f##	M2/2
(4C##	pp	8F##	pp	8f##	pp	8ddd#	pp	V7	=157	f##	M2/2
4BB#	pp	8G##	pp	8e##	pp	8ccc##	pp	V2	=157	f##	M2/2
4BB#	pp	8A#J)	pp	8f##J	pp	8ddd#J	pp	V2	=157	f##	M2/2
4C##	pp	(8G##L	pp	8e##L	pp	8ccc##L	pp	V7	=157	f##	M2/2
4C##	pp	8F##	pp	8f##	pp	8ddd#	pp	V7	=157	f##	M2/2
4BB#)	pp	8G##	pp	8e##	pp	8ccc##	pp	V2	=157	f##	M2/2
4BB#)	pp	8A#J)	pp	8f##J	pp	8ddd#J	pp	V2	=157	f##	M2/2
=158	=158	=158	=158	=158	=158	=158	=158	=158	=158	=158	=158
(4C##	pp	(8G##L	pp	8e##XL	pp	8ccc##L	pp	V7	=158	f##	M2/2
(4C##	pp	8F##	pp	8f##	pp	8ddd#	pp	V7	=158	f##	M2/2
4BB#	pp	8G##	pp	8e##	pp	8ccc##	pp	V2	=158	f##	M2/2
4BB#	pp	8A#J)	pp	8f##J	pp	8ddd#J	pp	V2	=158	f##	M2/2
4C##	pp	(8G##L	pp	8e##L	pp	8ccc##L	pp	V7	=158	f##	M2/2
4C##	pp	8F##	pp	8f##	pp	8ddd#	pp	V7	=158	f##	M2/2
4BB#)	pp	8G##	pp	8e##	pp	8ccc##	pp	V2	=158	f##	M2/2
4BB#)	pp	8A#J)	pp	8f##J	pp	8ddd#J	pp	V2	=158	f##	M2/2
=159	=159	=159	=159	=159	=159	=159	=159	=159	=159	=159	=159
(4C##	pp	(8G##L	pp	8e##XL	pp	8ccc##L	pp	V7	=159	f##	M2/2
(4C##	pp	8F##	pp	8f##	pp	8ddd#	pp	V7	=159	f##	M2/2
4BB#	pp	8G##	pp	8e##	pp	8ccc##	pp	V2	=159	f##	M2/2
4BB#	pp	8A#J)	pp	8f##J	pp	8ddd#J	pp	V2	=159	f##	M2/2
4C##	pp	(8G##L	pp	8e##L	pp	8ccc##L	pp	V7	=159	f##	M2/2
4C##	pp	8F##	pp	8f##	pp	8ddd#	pp	V7	=159	f##	M2/2
4C##)	pp	8G##	pp	8e##	pp	8ccc##	pp	V2	=159	f##	M2/2
4C##)	pp	8G##J)	pp	8e##J)	pp	8ccc##J)	pp	V2	=159	f##	M2/2
=160	=160	=160	=160	=160	=160	=160	=160	=160	=160	=160	=160
4FF##'	ff ff	4F##'	pp	4f##'	ff	(8ccc##L	ff	i\\	=160	f##	M2/2
4FF##'	ff ff	4F##'	pp	4f##'	ff	8ddd#	ff	i\\	=160	f##	M2/2
4r	ff ff	(8A#L	pp	(8a#L	ff	8ccc##	ff	i\\	=160	f##	M2/2
4r	ff ff	8c##J	pp	8cc##J	ff	8ddd#J	ff	i\\	=160	f##	M2/2
2r	ff ff	4f##')	pp	4ff##')	ff	8ccc##L	ff	i\\	=160	f##	M2/2
2r	ff ff	4f##')	pp	4ff##')	ff	8ddd#	ff	i\\	=160	f##	M2/2
2r	ff ff	(8a#L	pp	(8aa#L	ff	8ccc##	ff	i\\	=160	f##	M2/2
2r	ff ff	8cc##J	pp	8ccc##J	ff	8ddd#J	ff	i\\	=160	f##	M2/2
=161	=161	=161	=161	=161	=161	=161	=161	=161	=161	=161	=161
4r	ff ff	4ff##')	pp	4fff##')	ff	8ccc##L	ff	i\\	=161	f##	M2/2
4r	ff ff	4ff##')	pp	4fff##')	ff	8ddd#	ff	i\\	=161	f##	M2/2
(8FF##L	ff ff	8r	pp	8r	ff	8ccc##	ff	i\\	=161	f##	M2/2
8AA#J	ff ff	8f##	pp	8c## 8a#	ff	8ddd#J	ff	i\\	=161	f##	M2/2
4C##')	ff ff	4f##	pp	4c## 4a#	ff	8ccc##L	ff	i\\	=161	f##	M2/2
4C##')	ff ff	4f##	pp	4c## 4a#	ff	8ddd#	ff	i\\	=161	f##	M2/2
(8D#L	ff ff	8r	pp	8r	ff	8ccc##	ff	i\\	=161	f##	M2/2
8FF##J	ff ff	8f##	pp	8c## 8a#	ff	8ddd#J	ff	i\\	=161	f##	M2/2
=162	=162	=162	=162	=162	=162	=162	=162	=162	=162	=162	=162
4EE##X')	ff ff	4g##	pp	4c## 4b#	ff	8ccc##L	ff	V65	=162	f##	M2/2
4EE##X')	ff ff	4g##	pp	4c## 4b#	ff	8ddd#	ff	V65	=162	f##	M2/2
4r	ff ff	(8E##XL	pp	(8e##XL	ff	8ccc##	ff	V65	=162	f##	M2/2
4r	ff ff	8G##J	pp	8g##J	ff	8ddd#J	ff	V65	=162	f##	M2/2
2r	ff ff	4B#')	pp	4b#')	ff	8ccc##L	ff	V65	=162	f##	M2/2
2r	ff ff	4B#')	pp	4b#')	ff	8ddd#	ff	V65	=162	f##	M2/2
2r	ff ff	(8e##XL	pp	(8ee##XL	ff	8ccc##	ff	V65	=162	f##	M2/2
2r	ff ff	8g##J	pp	8gg##J	ff	8ddd#J	ff	V65	=162	f##	M2/2
=163	=163	=163	=163	=163	=163	=163	=163	=163	=163	=163	=163
4r	ff ff	4b#')	pp	4bb#')	ff	8ccc##L	ff	V65	=163	f##	M2/2
4r	ff ff	4b#')	pp	4bb#')	ff	8ddd#	ff	V65	=163	f##	M2/2
(8EE##XL	ff ff	8r	pp	8r	ff	8ccc##	ff	V65	=163	f##	M2/2
8GG##J	ff ff	8g##	pp	8c## 8b#	ff	8ddd#J	ff	V65	=163	f##	M2/2
4C##')	ff ff	4g##	pp	4c## 4b#	ff	8ccc##L	ff	V65	=163	f##	M2/2
4C##')	ff ff	4g##	pp	4c## 4b#	ff	8ddd#	ff	V65	=163	f##	M2/2
(8D#L	ff ff	8r	pp	8r	ff	8ccc##	ff	V65	=163	f##	M2/2
8EE##J	ff ff	8g##	pp	8c## 8b#	ff	8ddd#J)	ff	V65	=163	f##	M2/2
=164	=164	=164	=164	=164	=164	=164	=164	=164	=164	=164	=164
4FF##')	ff ff	4f##'	pp	4c## 4a#	ff	4ccc##	ff	i	=164	f##	M2/2
(8AA#L	ff ff	(8A#L	pp	8r	ff	4r	ff	i	=164	f##	M2/2
8C##J	ff ff	8c##J	pp	8c## 8a#	ff	4r	ff	i	=164	f##	M2/2
4F##')	ff ff	4f##')	pp	4c## 4a#	ff	2r	ff	i	=164	f##	M2/2
(8A#L	ff ff	(8a#L	pp	8r	ff	2r	ff	i	=164	f##	M2/2
8c##J	ff ff	8cc##J	pp	8c## 8a#	ff	2r	ff	i	=164	f##	M2/2
=165	=165	=165	=165	=165	=165	=165	=165	=165	=165	=165	=165
4f##')	ff ff	4ff##')	pp	4c## 4a#	ff	4r	ff	i	=165	f##	M2/2
4r	ff ff	4r	pp	8r	ff	(8ff##L	ff	i	=165	f##	M2/2
4r	ff ff	4r	pp	8c## 8a#	ff	8aa#J	ff	i	=165	f##	M2/2
2r	ff ff	2r	pp	4c## 4a#	ff	4ccc##')	ff	i	=165	f##	M2/2
2r	ff ff	2r	pp	8r	ff	(8ddd#L	ff	i	=165	f##	M2/2
2r	ff ff	2r	pp	8c## 8a#	ff	8ff##J	ff	i	=165	f##	M2/2
=166	=166	=166	=166	=166	=166	=166	=166	=166	=166	=166	=166
4C##	ff ff	4c##	pp	4c## 4b#	ff	4ee##X')	ff	V7	=166	f##	M2/2
(8E##XL	ff ff	(8e##XL	pp	8r	ff	4r	ff	V7	=166	f##	M2/2
8G##J	ff ff	8g##J	pp	8c## 8b#	ff	4r	ff	V7	=166	f##	M2/2
4c##')	ff ff	4cc##')	pp	4c## 4b#	ff	2r	ff	V7	=166	f##	M2/2
(8e##XL	ff ff	(8ee##XL	pp	8r	ff	2r	ff	V7	=166	f##	M2/2
8g##J	ff ff	8gg##J	pp	8c## 8b#	ff	2r	ff	V7	=166	f##	M2/2
=167	=167	=167	=167	=167	=167	=167	=167	=167	=167	=167	=167
4b#')	ff ff	4bb#')	pp	4c## 4g##	ff	4r	ff	V7	=167	f##	M2/2
8r	ff ff	8r	pp	8r	ff	(8ee##XL	ff	V7	=167	f##	M2/2
8C##	ff ff	8e##X	pp	8c## 8g##	ff	8gg##J	ff	V7	=167	f##	M2/2
4C##	ff ff	4e##	pp	4c## 4g##	ff	4ccc##')	ff	V7	=167	f##	M2/2
8r	ff ff	8r	pp	8r	ff	(8ddd#L	ff	V7	=167	f##	M2/2
8C##	ff ff	8g##	pp	8c## 8b#	ff	8ee##J	ff	V7	=167	f##	M2/2
=168	=168	=168	=168	=168	=168	=168	=168	=168	=168	=168	=168
4C##	ff ff	4f##	pp	4c## 4a#	ff	4ff##')	ff	i64	=168	f##	M2/2
8r	ff ff	8r	pp	8r	ff	4r	ff	i64	=168	f##	M2/2
8C##	ff ff	8f##	pp	8c## 8a#	ff	4r	ff	i64	=168	f##	M2/2
4C##	ff ff	4f##	pp	4c## 4a#	ff	4ff##	ff	i64	=168	f##	M2/2
8r	ff ff	8r	pp	8r	ff	8r	ff	i64	=168	f##	M2/2
8BB#	ff ff	8c##	pp	8e##X	ff	8gg##	ff	i64	=168	f##	M2/2
=169	=169	=169	=169	=169	=169	=169	=169	=169	=169	=169	=169
4AA#	ff ff	4c##	pp	4f##	ff	4aa#	ff	i6	=169	f##	M2/2
8r	ff ff	8r	pp	8r	ff	8r	ff	i6	=169	f##	M2/2
8GG##	ff ff	8B#	pp	8c##	ff	8bb#	ff	i6	=169	f##	M2/2
4FF##	ff ff	4A#	pp	4c##	ff	4ccc##	ff	i	=169	f##	M2/2
8r	ff ff	4G##	pp	8r	ff	8r	ff	i	=169	f##	M2/2
8EE##X	ff ff	4G##	pp	8b#	ff	8ddd#	ff	V65	=169	f##	M2/2
=170	=170	=170	=170	=170	=170	=170	=170	=170	=170	=170	=170
1FF##	sf	4A#	pp	4a#	ff	4ccc##	ff	i	=170	f##	M2/2
1FF##	sf	8r	pp	8r	ff	4r	ff	i	=170	f##	M2/2
1FF##	sf	8A#	pp	8a#	ff	4r	ff	i	=170	f##	M2/2
1FF##	sf	4A#	pp	4a#	ff	4ccc##	ff	i	=170	f##	M2/2
1FF##	sf	8r	pp	8r	ff	8r	ff	i	=170	f##	M2/2
1FF##	sf	8A#	pp	8a#	ff	8bb#	ff	i	=170	f##	M2/2
=171	=171	=171	=171	=171	=171	=171	=171	=171	=171	=171	=171
1D#	sf	4f##	pp	4b#	ff	4aa#	ff	VI	=171	f##	M2/2
1D#	sf	8r	pp	8r	ff	8r	ff	VI	=171	f##	M2/2
1D#	sf	8f##	pp	8b#	ff	8gg##	ff	VI	=171	f##	M2/2
1D#	sf	4f##	pp	4b#	ff	4aa#	ff	VI	=171	f##	M2/2
1D#	sf	8r	pp	8r	ff	8r	ff	VI	=171	f##	M2/2
1D#	sf	8f##	pp	8b#	ff	8ff##	ff	VI	=171	f##	M2/2
=172	=172	=172	=172	=172	=172	=172	=172	=172	=172	=172	=172
4C##	sf	4e##X	pp	4cc##	ff	4gg##	ff	V	=172	f##	M2/2
4r	sf	8r	pp	8r	ff	4r	ff	V	=172	f##	M2/2
4r	sf	8e##	pp	8c##	ff	4r	ff	V	=172	f##	M2/2
2r	sf	4e##	pp	4c##	ff	4bb#	ff	V7	=172	f##	M2/2
2r	sf	8r	pp	8r	ff	8r	ff	V7	=172	f##	M2/2
2r	sf	8f##	pp	8d#	ff	8aa#	ff	V7	=172	f##	M2/2
=173	=173	=173	=173	=173	=173	=173	=173	=173	=173	=173	=173
1r	sf	4g##	pp	4e##X	ff	4gg##	ff	V65	=173	f##	M2/2
1r	sf	8r	pp	8r	ff	8r	ff	V65	=173	f##	M2/2
1r	sf	8a#	pp	8f##	ff	8ff##	ff	V65	=173	f##	M2/2
1r	sf	4b#	pp	4g##	ff	4ee##X	ff	V43	=173	f##	M2/2
1r	sf	8r	pp	8r	ff	8r	ff	V43	=173	f##	M2/2
1r	sf	8c##	pp	8g## 8b#	ff	8dd#	ff	V43	=173	f##	M2/2
=174	=174	=174	=174	=174	=174	=174	=174	=174	=174	=174	=174
1r	sf	1c##	sf	4g## 4b#	ff	4cc##	ff	V7	=174	f##	M2/2
1r	sf	1c##	sf	4r	ff	8r	ff	V7	=174	f##	M2/2
1r	sf	1c##	sf	4r	ff	8cc##	ff	V7	=174	f##	M2/2
1r	sf	1c##	sf	4bb#	ff	4cc##	ff	V7	=174	f##	M2/2
1r	sf	1c##	sf	8r	ff	8r	ff	V7	=174	f##	M2/2
1r	sf	1c##	sf	8aa#	ff	8cc##	ff	V7	=174	f##	M2/2
=175	=175	=175	=175	=175	=175	=175	=175	=175	=175	=175	=175
1r	sf	1b#	sf	4gg##	ff	4cc##	ff	V2	=175	f##	M2/2
1r	sf	1b#	sf	8r	ff	8r	ff	V2	=175	f##	M2/2
1r	sf	1b#	sf	8ff##	ff	8cc##	ff	V2	=175	f##	M2/2
1r	sf	1b#	sf	4gg##	ff	4cc##	ff	V2	=175	f##	M2/2
1r	sf	1b#	sf	8r	ff	8r	ff	V2	=175	f##	M2/2
1r	sf	1b#	sf	8ee##X	ff	8cc##	ff	V2	=175	f##	M2/2
=176	=176	=176	=176	=176	=176	=176	=176	=176	=176	=176	=176
1r	sf	4a#	sf	4ff##	ff	4cc##	ff	i6	=176	f##	M2/2
1r	sf	4r	sf	8r	ff	8r	ff	i6	=176	f##	M2/2
1r	sf	4r	sf	8ccc##	ff	8cc##	ff	i6	=176	f##	M2/2
1r	sf	4F##	sf	4ccc##	ff	4a#	ff	i	=176	f##	M2/2
1r	sf	8r	sf	8r	ff	8r	ff	i	=176	f##	M2/2
1r	sf	8G##	sf	8bb#	ff	8b#	ff	i	=176	f##	M2/2
=177	=177	=177	=177	=177	=177	=177	=177	=177	=177	=177	=177
1r	sf	4A#	sf	4aa#	ff	4cc##	ff	i6	=177	f##	M2/2
1r	sf	8r	sf	8r	ff	8r	ff	i6	=177	f##	M2/2
1r	sf	8B#	sf	8gg##	ff	8dd#	ff	i6	=177	f##	M2/2
1r	sf	4c##	sf	4ff##	ff	4a#	ff	i64	=177	f##	M2/2
1r	sf	8r	sf	8r	ff	8r	ff	i64	=177	f##	M2/2
1r	sf	8d#	sf	8ee##X	ff	8b#	ff	i64	=177	f##	M2/2
=178	=178	=178	=178	=178	=178	=178	=178	=178	=178	=178	=178
2r	sf	4c##	sf	1ff##	sf	4a#	ff	i64	=178	f##	M2/2
2r	sf	8r	sf	1ff##	sf	8r	ff	i64	=178	f##	M2/2
2r	sf	8cc##	sf	1ff##	sf	8f## 8a#	ff	i64	=178	f##	M2/2
4C##	sf	4aa#	sf	1ff##	sf	4f## 4a#	ff	i64	=178	f##	M2/2
8r	sf	8r	sf	1ff##	sf	8r	ff	i64	=178	f##	M2/2
8BB#	sf	8gg##	sf	1ff##	sf	8f## 8a#	ff	i64	=178	f##	M2/2
=179	=179	=179	=179	=179	=179	=179	=179	=179	=179	=179	=179
4AA#	sf	4ff##	sf	1ddd#	sf	4f## 4a#	ff	VI64	=179	f##	M2/2
8r	sf	8r	sf	1ddd#	sf	8r	ff	VI64	=179	f##	M2/2
8GG##	sf	8ee##X	sf	1ddd#	sf	8f## 8a#	ff	VI64	=179	f##	M2/2
4AA#	sf	4ff##	sf	1ddd#	sf	4f## 4a#	ff	VI64	=179	f##	M2/2
8r	sf	8r	sf	1ddd#	sf	8r	ff	VI64	=179	f##	M2/2
8FF##	sf	8A#	sf	1ddd#	sf	8f## 8a#	ff	VI64	=179	f##	M2/2
=180	=180	=180	=180	=180	=180	=180	=180	=180	=180	=180	=180
4EE##X	sf	4B#	sf	4ccc##	sf	4g## 4b#	ff	V65	=180	f##	M2/2
4r	sf	4r	sf	4r	sf	8r	ff	V65	=180	f##	M2/2
4r	sf	4r	sf	4r	sf	8g## 8b#	ff	V65	=180	f##	M2/2
4C##	sf	4B#	sf	2r	sf	4e##X	ff	V7	=180	f##	M2/2
8r	sf	8r	sf	2r	sf	8r	ff	V7	=180	f##	M2/2
8D#	sf	8B#	sf	2r	sf	8f##	ff	V7	=180	f##	M2/2
=181	=181	=181	=181	=181	=181	=181	=181	=181	=181	=181	=181
4E##X	sf	4B#	sf	1r	sf	4g##	ff	V65	=181	f##	M2/2
8r	sf	8r	sf	1r	sf	8r	ff	V65	=181	f##	M2/2
8F##	sf	8A#	sf	1r	sf	8a#	ff	V65	=181	f##	M2/2
4G##	sf	4G##	sf	1r	sf	4b#	ff	V43	=181	f##	M2/2
8r	sf	8r	sf	1r	sf	8r	ff	V43	=181	f##	M2/2
8A#	sf	8F##	sf	1r	sf	8cc##	ff	V43	=181	f##	M2/2
=182	=182	=182	=182	=182	=182	=182	=182	=182	=182	=182	=182
4B#	sf	4E##X	sf	4g##	sf	1cc##	sf	V2	=182	f##	M2/2
4r	sf	4r	sf	8r	sf	1cc##	sf	V2	=182	f##	M2/2
4r	sf	4r	sf	8g##	sf	1cc##	sf	V2	=182	f##	M2/2
2r	sf	4b#	sf	4g##	sf	1cc##	sf	V2	=182	f##	M2/2
2r	sf	8r	sf	8r	sf	1cc##	sf	V2	=182	f##	M2/2
2r	sf	8a#	sf	8f##	sf	1cc##	sf	V2	=182	f##	M2/2
=183	=183	=183	=183	=183	=183	=183	=183	=183	=183	=183	=183
1r	sf	4g##	sf	4e##X	sf	(1bb#	sf	V43	=183	f##	M2/2
1r	sf	8r	sf	8r	sf	(1bb#	sf	V43	=183	f##	M2/2
1r	sf	8f##	sf	8a#	sf	(1bb#	sf	V43	=183	f##	M2/2
1r	sf	4g##	sf	4b#	sf	(1bb#	sf	V43	=183	f##	M2/2
1r	sf	8r	sf	8r	sf	(1bb#	sf	V43	=183	f##	M2/2
1r	sf	8e##X	sf	8g##	sf	(1bb#	sf	V43	=183	f##	M2/2
=184	=184	=184	=184	=184	=184	=184	=184	=184	=184	=184	=184
1F##	sf > ]]	4g#	>	4a##X	>	2.aa##X	>	iv.V(2)	=184	f##	M2/2
1F##	sf > ]]	8r	>	8r	>	2.aa##X	>	iv.V(2)	=184	f##	M2/2
1F##	sf > ]]	8f##	>	8ee#	>	2.aa##X	>	iv.V(2)	=184	f##	M2/2
1F##	sf > ]]	4g#	>	4ee#	>	2.aa##X	>	iv.V(2)	=184	f##	M2/2
1F##	sf > ]]	8r	>	8r	>	4bb#	]]	iv.V(2)	=184	f##	M2/2
1F##	sf > ]]	8f##	]]	8dd#	]]	4bb#	]]	iv.V(2)	=184	f##	M2/2
=185	=185	=185	=185	=185	=185	=185	=185	=185	=185	=185	=185
1e#	<[	4e#	<	4cc##	<	2aa##X	<	V2	=185	f##	M2/2
1e#	<[	8r	<	8r	<	2aa##X	<	V2	=185	f##	M2/2
1e#	<[	8d#	<	8b#	<	2aa##X	<	V2	=185	f##	M2/2
1e#	<[	4e#	<	4cc##	<	2gg#)	[[	V2(+9)	=185	f##	M2/2
1e#	<[	4a##X	[[	4f##	[[	2gg#)	[[	V2(+9)	=185	f##	M2/2
=186	=186	=186	=186	=186	=186	=186	=186	=186	=186	=186	=186
2.d#	>	2.f##	>	2a##X	>	2.ff##	>	i6	=186	f##	M2/2
2.d#	>	2.f##	>	4b#	>	2.ff##	>	i6	=186	f##	M2/2
(4d#	] p	(4f##	] p	(4b#	] p	(4bb#	] p	i6	=186	f##	M2/2
=187	=187	=187	=187	=187	=187	=187	=187	=187	=187	=187	=187
4c##	] p	4e#	] p	[1f##)	] p	4aa##X	] p	V43	=187	f##	M2/2
4B#	] p	4d#	] p	[1f##)	] p	4bb#	] p	i	=187	f##	M2/2
4A##X	] p	4c##	] p	[1f##)	] p	4ccc##	] p	V65	=187	f##	M2/2
4B#)	] p	4B#)	] p	[1f##)	] p	4ddd#	] p	i	=187	f##	M2/2
=188	=188	=188	=188	=188	=188	=188	=188	=188	=188	=188	=188
(1F##	<	(1A##X	] p	1f##]	] p	4ccc##)	] p	V	=188	f##	M2/2
(1F##	<	(1A##X	] p	1f##]	] p	4r	] p	V	=188	f##	M2/2
(1F##	<	(1A##X	] p	1f##]	] p	4r	] p	V	=188	f##	M2/2
(1F##	<	(1A##X	] p	1f##]	] p	(4bb#	<	V	=188	f##	M2/2
=189	=189	=189	=189	=189	=189	=189	=189	=189	=189	=189	=189
1e#)	[[	2.A##X)	] p	2.c##	] p	2aa##X	<	#viio43	=189	f##	M2/2
1e#)	[[	2.A##X)	] p	2.c##	] p	2gg#	[[	V2(+9)	=189	f##	M2/2
1e#)	[[	(4F##	<	(4f##	<	2gg#	[[	V2(+9)	=189	f##	M2/2
=190	=190	=190	=190	=190	=190	=190	=190	=190	=190	=190	=190
2.d#	>	2A##X	<	2a##X	<	2.ff##)	>	i	=190	f##	M2/2
2.d#	>	4B#)	<	4b#)	<	2.ff##)	>	i	=190	f##	M2/2
(4B#	p ]]	(4d#	[ p	[4f##	[ p	(4bb#	p ]]	i	=190	f##	M2/2
=191	=191	=191	=191	=191	=191	=191	=191	=191	=191	=191	=191
1F##)	p ]]	4B#	[ p	(4f##]	[ p	4ddd#	p ]]	V(64)	=191	f##	M2/2
1F##)	p ]]	4c##	[ p	4e#	[ p	4ccc##	p ]]	V7	=191	f##	M2/2
1F##)	p ]]	4B#	[ p	4d#	[ p	4bb#	p ]]	V(64)	=191	f##	M2/2
1F##)	p ]]	4c##)	[ p	4e#)	[ p	4aa##X)	p ]]	V7	=191	f##	M2/2
=192	=192	=192	=192	=192	=192	=192	=192	=192	=192	=192	=192
(4D#	p ]]	(4F##	[ p	4d#	[ p	4bb#	p ]]	i\\	=192	f##	M2/2
4C##	p ]]	4c##	[ p	4r	[ p	4r	p ]]	i\\	=192	f##	M2/2
4BB#)	p ]]	4B#)	[ p	2r	[ p	2r	p ]]	i\\	=192	f##	M2/2
(4BB#	p ]]	(4B#	[ p	2r	[ p	2r	p ]]	i\\	=192	f##	M2/2
=193	=193	=193	=193	=193	=193	=193	=193	=193	=193	=193	=193
2AA##X	<	2A##X	<	2r	[ p	2r	p ]]	#viio7	=193	f##	M2/2
2GG#	[[	2G#	[[	4r	[ p	4r	p ]]	#viio2	=193	f##	M2/2
2GG#	[[	2G#	[[	(4c##	<	(4a##X	<	#viio2	=193	f##	M2/2
=194	=194	=194	=194	=194	=194	=194	=194	=194	=194	=194	=194
2.FF##)	>	2.F##)	>	2a##X	<	2cc##	<	V	=194	f##	M2/2
2.FF##)	>	2.F##)	>	4b#)	<	4dd#)	<	i64	=194	f##	M2/2
(4BB#	] p	(4B#	] p	4r	[	4r	[	i64	=194	f##	M2/2
=195	=195	=195	=195	=195	=195	=195	=195	=195	=195	=195	=195
4AA##X	] p	4A##X	] p	1r	[	1r	[	V6	=195	f##	M2/2
4BB#	] p	4B#	] p	1r	[	1r	[	V6	=195	f##	M2/2
4C##	] p	4c##	] p	1r	[	1r	[	V6	=195	f##	M2/2
4D#)	] p	4d#)	] p	1r	[	1r	[	V6	=195	f##	M2/2
=196	=196	=196	=196	=196	=196	=196	=196	=196	=196	=196	=196
2.C##	] p	2.c##	] p	1r	[	1r	[	V6	=196	f##	M2/2
(4BB#	] p	(4B#	] p	1r	[	1r	[	V6	=196	f##	M2/2
=197	=197	=197	=197	=197	=197	=197	=197	=197	=197	=197	=197
2AA##X	<	2A##X	<	2r	[	2r	[	#viio7	=197	f##	M2/2
2GG#	[[	2G#	[[	4r	[	4r	[	#viio2	=197	f##	M2/2
2GG#	[[	2G#	[[	(4c##	<	(4aa##X	<	#viio2	=197	f##	M2/2
=198	=198	=198	=198	=198	=198	=198	=198	=198	=198	=198	=198
2.FF##)	>	2.F##)	>	2a##X	<	2ccc##	<	V	=198	f##	M2/2
2.FF##)	>	2.F##)	>	4b#)	<	4ddd#)	<	i64	=198	f##	M2/2
(4BB#	] p	(4B#	] p	4r	[	4r	[	i64	=198	f##	M2/2
=199	=199	=199	=199	=199	=199	=199	=199	=199	=199	=199	=199
4D#	] p	4d#	] p	1r	[	1r	[	V6	=199	f##	M2/2
4C##	] p	4c##	] p	1r	[	1r	[	V6	=199	f##	M2/2
4BB#	] p	4B#	] p	1r	[	1r	[	V6	=199	f##	M2/2
4AA##X	] p	4A##X	] p	1r	[	1r	[	V6	=199	f##	M2/2
=200	=200	=200	=200	=200	=200	=200	=200	=200	=200	=200	=200
4E#	] p	4e#	] p	2r	[	1r	[	V64	=200	f##	M2/2
4D#	] p	4d#	] p	2r	[	1r	[	V64	=200	f##	M2/2
4C##	] p	4c##	] p	4r	[	1r	[	V64	=200	f##	M2/2
4BB#)	] p	4B#)	] p	(4b#	p	1r	[	V64	=200	f##	M2/2
=201	=201	=201	=201	=201	=201	=201	=201	=201	=201	=201	=201
(4F##	] p	(4f##	] p	4dd#	p	1r	[	V64	=201	f##	M2/2
4E#	] p	4e#	] p	4cc##	p	1r	[	V64	=201	f##	M2/2
4D#	] p	4d#	] p	4b#	p	1r	[	V64	=201	f##	M2/2
4C##	] p	4c##	] p	4a##X	p	1r	[	V64	=201	f##	M2/2
=202	=202	=202	=202	=202	=202	=202	=202	=202	=202	=202	=202
4G#	] p	4g#	] p	4ee#	p	2r	[	i64	=202	f##	M2/2
4F##	] p	4f##	] p	4dd#	p	2r	[	i64	=202	f##	M2/2
4E#	] p	4e#	] p	4cc##	p	4r	[	i6	=202	f##	M2/2
4D#)	] p	4d#)	] p	4b#)	p	4fff##	p	i6	=202	f##	M2/2
=203	=203	=203	=203	=203	=203	=203	=203	=203	=203	=203	=203
4F##	p	4c##	p	(8cc##L	p	4eee#	p	V[V7	=203	f##	M2/2
4F##	p	4c##	p	8dd#	p	4eee#	p	V[V7	=203	f##	M2/2
8r	p	4r	p	8cc##	p	8r	p	V[V7	=203	f##	M2/2
8f##	p	4r	p	8b#J	p	8ddd#	p	V[V7	=203	f##	M2/2
4f##	p	4r	p	8cc##L	p	4eee#	p	V[V7	=203	f##	M2/2
4f##	p	4r	p	8a##X	p	4eee#	p	V[V7	=203	f##	M2/2
8r	p	8r	p	8b#	p	8r	p	V[V7	=203	f##	M2/2
8f##	p	8F##	p	8a##J)	p	8ccc##	p	V[V7	=203	f##	M2/2
=204	=204	=204	=204	=204	=204	=204	=204	=204	=204	=204	=204
4f##	p	4F##	p	(8b#L	p	(2ddd#	p	i64	=204	f##	M2/2
4f##	p	4F##	p	8cc##	p	(2ddd#	p	i64	=204	f##	M2/2
8r	p	4r	p	8b#	p	(2ddd#	p	i64	=204	f##	M2/2
8f##	p	4r	p	8a##XJ	p	(2ddd#	p	i64	=204	f##	M2/2
4f##	p	4r	p	8b#L	p	4eee#)	p	i64(7)	=204	f##	M2/2
4f##	p	4r	p	8dd#	p	4eee#)	p	i64(7)	=204	f##	M2/2
8r	p	8r	p	8cc##	p	8r	p	i64(7)	=204	f##	M2/2
8f##	p	8F##	p	8b#J)	p	8ddd#	p	i64	=204	f##	M2/2
=205	=205	=205	=205	=205	=205	=205	=205	=205	=205	=205	=205
4f##	p	4F##	p	(8ee#L	p	4ccc##	p	V7	=205	f##	M2/2
4f##	p	4F##	p	8ff##	p	4ccc##	p	V7	=205	f##	M2/2
8r	p	4r	p	8ee#	p	8r	p	V7	=205	f##	M2/2
8f##	p	4r	p	8dd#J	p	8bb#	p	V7	=205	f##	M2/2
4f##	p	4r	p	8ee#L	p	4ccc##	p	V7	=205	f##	M2/2
4f##	p	4r	p	8cc##	p	4ccc##	p	V7	=205	f##	M2/2
8r	p	8r	p	8dd#	p	8r	p	V7	=205	f##	M2/2
8f##	p	8F##	p	8cc##J)	p	8aa##X	p	V7	=205	f##	M2/2
=206	=206	=206	=206	=206	=206	=206	=206	=206	=206	=206	=206
4f##	p	4F##	p	(8dd#L	p	2bb#	p	i64	=206	f##	M2/2
4f##	p	4F##	p	8ee#	p	2bb#	p	i64	=206	f##	M2/2
8r	p	4r	p	8dd#	p	2bb#	p	i64	=206	f##	M2/2
8f##	p	4r	p	8cc##J	p	2bb#	p	i64	=206	f##	M2/2
4f##	p	4r	p	8dd#L	p	4eee#	p	i64(7)]	=206	f##	M2/2
4f##	p	4r	p	8b#	p	4eee#	p	i64(7)]	=206	f##	M2/2
8r	p	8r	p	8cc#	p	8r	p	i64(7)]	=206	f##	M2/2
8g#	p	8G#	p	8b#J)	p	8ddd#	p	II.I	=206	f##	M2/2
=207	=207	=207	=207	=207	=207	=207	=207	=207	=207	=207	=207
4d#	p	4f##	p	(8a#L	p	4ccc#	p	V7	=207	f##	M2/2
4d#	p	4f##	p	8b#	p	4ccc#	p	V7	=207	f##	M2/2
8r	p	4r	p	8a#	p	8r	p	V7	=207	f##	M2/2
8d#	p	4r	p	8g#J	p	8bb#	p	V7	=207	f##	M2/2
4d#	p	4r	p	8a#L	p	4ccc#	p	V7	=207	f##	M2/2
4d#	p	4r	p	8f##	p	4ccc#	p	V7	=207	f##	M2/2
8r	p	8r	p	8g#	p	8r	p	V7	=207	f##	M2/2
8d#	p	8cc#	p	8f##J)	p	8aa#	p	V7	=207	f##	M2/2
=208	=208	=208	=208	=208	=208	=208	=208	=208	=208	=208	=208
4d#	p	4b#	p	4g#	p	(8bb#L	p	I	=208	f##	M2/2
4d#	p	4b#	p	4g#	p	8gg#	p	I	=208	f##	M2/2
4r	p	4r	p	4r	p	8aa#	p	I	=208	f##	M2/2
4r	p	4r	p	4r	p	8bb#J	p	I	=208	f##	M2/2
4e#	p	4r	p	4g#	p	8ccc#L	p	IV6	=208	f##	M2/2
4e#	p	4r	p	4g#	p	8ddd#	p	IV6	=208	f##	M2/2
8r	p	8r	p	8r	p	8ccc#	p	IV6	=208	f##	M2/2
8d#	p	8b#	p	8f##	p	8bb#J)	p	I	=208	f##	M2/2
=209	=209	=209	=209	=209	=209	=209	=209	=209	=209	=209	=209
4c#	p	4ee#	p	4e#	p	(8aa#L	p	ii6	=209	f##	M2/2
4c#	p	4ee#	p	4e#	p	8bb#	p	ii6	=209	f##	M2/2
8r	p	4r	p	8r	p	8aa#	p	ii6	=209	f##	M2/2
8B#	p	4r	p	8d#	p	8gg##XJ	p	V43/ii	=209	f##	M2/2
4c#	p	4r	p	4e#	p	8aa#L	p	ii6	=209	f##	M2/2
4c#	p	4r	p	4e#	p	8ff##	p	ii6	=209	f##	M2/2
8r	p	8r	p	8r	p	8gg#	p	ii6	=209	f##	M2/2
8A#	p	8d#	p	8c#	p	8ff##J)	p	V43	=209	f##	M2/2
=210	=210	=210	=210	=210	=210	=210	=210	=210	=210	=210	=210
4B#	p	(8d#L	p	4dd#	p	4gg#	p	I6	=210	f##	M2/2
4B#	p	8b#	p	4dd#	p	4gg#	p	I6	=210	f##	M2/2
8r	p	8cc#	p	8r	p	4r	p	I6	=210	f##	M2/2
8B#	p	8dd#J	p	8gg#	p	4r	p	I6	=210	f##	M2/2
4c#	p	8ee#L	p	4gg#	p	2r	p	IV	=210	f##	M2/2
4c#	p	8ff##	p	4gg#	p	2r	p	IV	=210	f##	M2/2
8r	p	8ee#	p	8r	p	2r	p	IV	=210	f##	M2/2
8B#	p	8dd#J)	p	8gg#	p	2r	p	IV	=210	f##	M2/2
=211||	=211||	=211||	=211||	=211||	=211||	=211||	=211||	=211||	=211||	=211||	=211||
4A#	p	(8cc#L	p	4ccc#	p	4r	p	ii	=210	e#	M2/2
4A#	p	8dd#	p	4ccc#	p	4r	p	ii	=210	e#	M2/2
8r	p	8cc#	p	4r	p	8r	p	ii	=210	e#	M2/2
8G#	p	8b#J	p	4r	p	8dd#	p	ii	=210	e#	M2/2
4A#	p	8cc#L	p	2r	p	4dd#	p	V43	=210	e#	M2/2
4A#	p	8a#	p	2r	p	4dd#	p	V43	=210	e#	M2/2
8r	p	8b#	p	2r	p	8r	p	V43	=210	e#	M2/2
8F##	p	8a#J)	p	2r	p	8dd#	p	V65	=210	e#	M2/2
=212	=212	=212	=212	=212	=212	=212	=212	=212	=212	=212	=212
4G#	p	(8b#L	p	4r	p	4bb#	p	I	=212	e#	M2/2
4G#	p	8cc#	p	4r	p	4bb#	p	I	=212	e#	M2/2
8r	p	8b#	p	8r	p	4r	p	I	=212	e#	M2/2
8F##	p	8a#J)	p	8gg#	p	4r	p	I	=212	e#	M2/2
4E#	p	(8g#L	p	4gg#	p	4ccc#	p	IV6	=212	e#	M2/2
4E#	p	8a#	p	4gg#	p	4ccc#	p	IV6	=212	e#	M2/2
8r	p	8g#	p	8r	p	8r	p	IV6	=212	e#	M2/2
8D#	p	8f##J)	p	8gg#	p	8bb#	p	IV6	=212	e#	M2/2
=213	=213	=213	=213	=213	=213	=213	=213	=213	=213	=213	=213
4C#	p	(8e#L	p	4eee#	p	4aa#	p	ii6	=213	e#	M2/2
4C#	p	8f#	p	4eee#	p	4aa#	p	ii6	=213	e#	M2/2
8r	p	8e#	p	8r	p	8r	p	ii6	=213	e#	M2/2
8BB#	p	8d#J)	p	8fff#	p	8gg##X	p	V7/ii	=213	e#	M2/2
4C#	p	(8e#L	p	4eee#	p	4aa#	p	ii6	=213	e#	M2/2
4C#	p	8A#	p	4eee#	p	4aa#	p	ii6	=213	e#	M2/2
8r	p	8e#	p	8r	p	8r	p	ii6	=213	e#	M2/2
8C##X	p	8A#J)	p	8eee#	p	8gg#	p	V65/V	=213	e#	M2/2
=214	=214	=214	=214	=214	=214	=214	=214	=214	=214	=214	=214
4D#	f	(8A#L	f	4ddd#	f	4ff##	f	V	=214	e#	M2/2
4D#	f	8B#	f	4ddd#	f	4ff##	f	V	=214	e#	M2/2
8r	f	8A#	f	8r	f	8r	f	V	=214	e#	M2/2
8E#	f	8G#J)	f	8aa# 8ccc##X	f	8ee#	f	V	=214	e#	M2/2
4F##	f	(8A#L	f	4aa# 4ccc#	f	4dd#	f	V65	=214	e#	M2/2
4F##	f	8B#	f	4aa# 4ccc#	f	4dd#	f	V65	=214	e#	M2/2
8r	f	8A#	f	8r	f	8r	f	V65	=214	e#	M2/2
8G#	f	8e#J)	f	8gg# 8bb	f	8cc##X	f	#ivo43	=214	e#	M2/2
=215	=215	=215	=215	=215	=215	=215	=215	=215	=215	=215	=215
4A#	f	(8f##L	f	4ff##	f	4cc#	f	V43	=215	e#	M2/2
4A#	f	8g#	f	4ff##	f	4cc#	f	V43	=215	e#	M2/2
8r	f	8f##	f	8r	f	8r	f	V43	=215	e#	M2/2
8C#	f	8dd#J)	f	8a#	f	8aa#	f	V43	=215	e#	M2/2
4BB#	f	(8d#L	f	4g#	f	4ddd#	f	I6	=215	e#	M2/2
4BB#	f	8e#	f	4g#	f	4ddd#	f	I6	=215	e#	M2/2
8r	f	8d#	f	8r	f	8r	f	I6	=215	e#	M2/2
8AA#	f	8c#J)	f	8d# 8dd#	f	8ff##	f	I6	=215	e#	M2/2
=216	=216	=216	=216	=216	=216	=216	=216	=216	=216	=216	=216
(1GG# [1D#	p	[1B#	p	[1d# [1dd#	p	[2bb#	p	I	=216	e#	M2/2
(1GG# [1D#	p	[1B#	p	[1d# [1dd#	p	(8bb#L]	p	I	=216	e#	M2/2
(1GG# [1D#	p	[1B#	p	[1d# [1dd#	p	8aa#	p	I	=216	e#	M2/2
(1GG# [1D#	p	[1B#	p	[1d# [1dd#	p	8gg#	p	I	=216	e#	M2/2
(1GG# [1D#	p	[1B#	p	[1d# [1dd#	p	8ff##J	p	I	=216	e#	M2/2
=217	=217	=217	=217	=217	=217	=217	=217	=217	=217	=217	=217
1GG#) 1D#]	p	1B#]	p	1d#] 1dd#]	p	8gg#L	p	I	=217	e#	M2/2
1GG#) 1D#]	p	1B#]	p	1d#] 1dd#]	p	8ff##	p	I	=217	e#	M2/2
1GG#) 1D#]	p	1B#]	p	1d#] 1dd#]	p	8ee#	p	I	=217	e#	M2/2
1GG#) 1D#]	p	1B#]	p	1d#] 1dd#]	p	8dd#J	p	I	=217	e#	M2/2
1GG#) 1D#]	p	1B#]	p	1d#] 1dd#]	p	8cc#L	p	I	=217	e#	M2/2
1GG#) 1D#]	p	1B#]	p	1d#] 1dd#]	p	8b#	p	I	=217	e#	M2/2
1GG#) 1D#]	p	1B#]	p	1d#] 1dd#]	p	8a#	p	I	=217	e#	M2/2
1GG#) 1D#]	p	1B#]	p	1d#] 1dd#]	p	8g#J)	p	I	=217	e#	M2/2
=218	=218	=218	=218	=218	=218	=218	=218	=218	=218	=218	=218
(1AA# [1D#	p	[1c#	p	[1d# [1dd#	p	(4.g#	p	V43(7)	=218	e#	M2/2
(1AA# [1D#	p	[1c#	p	[1d# [1dd#	p	8f##)	p	V43	=218	e#	M2/2
(1AA# [1D#	p	[1c#	p	[1d# [1dd#	p	2ddd#	p	V43	=218	e#	M2/2
=219	=219	=219	=219	=219	=219	=219	=219	=219	=219	=219	=219
1AA#) 1D#]	p	1c#]	p	1d#] 1dd#]	p	2ddd#	p	V43	=219	e#	M2/2
1AA#) 1D#]	p	1c#]	p	1d#] 1dd#]	p	2ddd#	p	V43	=219	e#	M2/2
=220	=220	=220	=220	=220	=220	=220	=220	=220	=220	=220	=220
[1GG# [1D#	p	[2b#	p	(2dd# (1d#	p	(2ddd#	p	I	=220	e#	M2/2
[1GG# [1D#	p	(8b#L]	p	[2b#)	p	2ggg#	p	I	=220	e#	M2/2
[1GG# [1D#	p	8a#	p	[2b#)	p	2ggg#	p	I	=220	e#	M2/2
[1GG# [1D#	p	8g#	p	[2b#)	p	2ggg#	p	I	=220	e#	M2/2
[1GG# [1D#	p	8f##J	p	[2b#)	p	2ggg#	p	I	=220	e#	M2/2
=221	=221	=221	=221	=221	=221	=221	=221	=221	=221	=221	=221
1GG#] 1D#]	p	8g#L	p	1b#] 1d#)	p	2bbb#	p	I	=221	e#	M2/2
1GG#] 1D#]	p	8f##	p	1b#] 1d#)	p	2bbb#	p	I	=221	e#	M2/2
1GG#] 1D#]	p	8e#	p	1b#] 1d#)	p	2bbb#	p	I	=221	e#	M2/2
1GG#] 1D#]	p	8d#J	p	1b#] 1d#)	p	2bbb#	p	I	=221	e#	M2/2
1GG#] 1D#]	p	8c#L	p	1b#] 1d#)	p	2dddd#)	p	I	=221	e#	M2/2
1GG#] 1D#]	p	8B#	p	1b#] 1d#)	p	2dddd#)	p	I	=221	e#	M2/2
1GG#] 1D#]	p	8A#	p	1b#] 1d#)	p	2dddd#)	p	I	=221	e#	M2/2
1GG#] 1D#]	p	8G#J)	p	1b#] 1d#)	p	2dddd#)	p	I	=221	e#	M2/2
=222	=222	=222	=222	=222	=222	=222	=222	=222	=222	=222	=222
[1AA# [1D#	p	(4.G#	p	[1d# [1cc#	p	(2ddd#	p	V43	=222	e#	M2/2
[1AA# [1D#	p	8F##)	p	[1d# [1cc#	p	(2ddd#	p	V43	=222	e#	M2/2
[1AA# [1D#	p	2dd#	p	[1d# [1cc#	p	2fff##	p	V43	=222	e#	M2/2
=223	=223	=223	=223	=223	=223	=223	=223	=223	=223	=223	=223
1AA#] 1D#]	p	2dd#	p	1d#] 1cc#]	p	2aaa#	p	V43	=223	e#	M2/2
1AA#] 1D#]	p	2dd#	p	1d#] 1cc#]	p	2dddd#)	p	V43	=223	e#	M2/2
=224	=224	=224	=224	=224	=224	=224	=224	=224	=224	=224	=224
[1GG# [1D#	p	[1d# [1b#	p	[2bb#	p	(2ddd#	p	I	=224	e#	M2/2
[1GG# [1D#	p	[1d# [1b#	p	(8bb#L]	p	2ggg#	p	I	=224	e#	M2/2
[1GG# [1D#	p	[1d# [1b#	p	8aa#	p	2ggg#	p	I	=224	e#	M2/2
[1GG# [1D#	p	[1d# [1b#	p	8gg#	p	2ggg#	p	I	=224	e#	M2/2
[1GG# [1D#	p	[1d# [1b#	p	8ff##J	p	2ggg#	p	I	=224	e#	M2/2
=225	=225	=225	=225	=225	=225	=225	=225	=225	=225	=225	=225
1GG#] 1D#]	p	1d#] 1b#]	p	8gg#L	p	2bbb#	p	I	=225	e#	M2/2
1GG#] 1D#]	p	1d#] 1b#]	p	8ff##	p	2bbb#	p	I	=225	e#	M2/2
1GG#] 1D#]	p	1d#] 1b#]	p	8ee#	p	2bbb#	p	I	=225	e#	M2/2
1GG#] 1D#]	p	1d#] 1b#]	p	8dd#J	p	2bbb#	p	I	=225	e#	M2/2
1GG#] 1D#]	p	1d#] 1b#]	p	8cc#L	p	2dddd#)	p	I	=225	e#	M2/2
1GG#] 1D#]	p	1d#] 1b#]	p	8b#	p	2dddd#)	p	I	=225	e#	M2/2
1GG#] 1D#]	p	1d#] 1b#]	p	8a#	p	2dddd#)	p	I	=225	e#	M2/2
1GG#] 1D#]	p	1d#] 1b#]	p	8g#J)	p	2dddd#)	p	I	=225	e#	M2/2
=226	=226	=226	=226	=226	=226	=226	=226	=226	=226	=226	=226
[1AA# [1D#	p	[1d# [1cc#	p	(4.g#	p	[2ccc#	p	V43	=226	e#	M2/2
[1AA# [1D#	p	[1d# [1cc#	p	8f##)	p	[2ccc#	p	V43	=226	e#	M2/2
[1AA# [1D#	p	[1d# [1cc#	p	2ddd#	p	(8ccc#L]	p	V43	=226	e#	M2/2
[1AA# [1D#	p	[1d# [1cc#	p	2ddd#	p	8bb#	p	V43	=226	e#	M2/2
[1AA# [1D#	p	[1d# [1cc#	p	2ddd#	p	8aa#	p	V43	=226	e#	M2/2
[1AA# [1D#	p	[1d# [1cc#	p	2ddd#	p	8gg#J	p	V43	=226	e#	M2/2
=227	=227	=227	=227	=227	=227	=227	=227	=227	=227	=227	=227
1AA#] 1D#]	p	1d#] 1cc#]	p	2ddd#	p	8ff##L	p	V43	=227	e#	M2/2
1AA#] 1D#]	p	1d#] 1cc#]	p	2ddd#	p	8ee#	p	V43	=227	e#	M2/2
1AA#] 1D#]	p	1d#] 1cc#]	p	2ddd#	p	8dd#	p	V43	=227	e#	M2/2
1AA#] 1D#]	p	1d#] 1cc#]	p	2ddd#	p	8cc#J	p	V43	=227	e#	M2/2
1AA#] 1D#]	p	1d#] 1cc#]	p	2ddd#	p	8dd#L	p	V43	=227	e#	M2/2
1AA#] 1D#]	p	1d#] 1cc#]	p	2ddd#	p	8cc#	p	V43	=227	e#	M2/2
1AA#] 1D#]	p	1d#] 1cc#]	p	2ddd#	p	8b#	p	V43	=227	e#	M2/2
1AA#] 1D#]	p	1d#] 1cc#]	p	2ddd#	p	8a#J)	p	V43	=227	e#	M2/2
=228	=228	=228	=228	=228	=228	=228	=228	=228	=228	=228	=228
2BB#	p	2d# 2dd#	p	2ddd#	p	(4.a#	p	#vii65/ii	=228	e#	M2/2
2BB#	p	2d# 2dd#	p	2ddd#	p	8g##X)	p	#vii65/ii	=228	e#	M2/2
2BB#	p	2B# 2d#	p	2g##X	p	2fff#	p	#vii65/ii	=228	e#	M2/2
=229	=229	=229	=229	=229	=229	=229	=229	=229	=229	=229	=229
1B#	p	2B# 2d#	p	2g##X	p	2fff#	p	#vii65/ii	=229	e#	M2/2
1B#	p	2dd#	p	2g##	p	2fff#	p	#vii65/ii	=229	e#	M2/2
=230	=230	=230	=230	=230	=230	=230	=230	=230	=230	=230	=230
1e#	p	2r	p	2r	p	(4.dd#	p	#viio65/V	=230	e#	M2/2
1e#	p	2r	p	2r	p	8cc##X)	p	#viio65/V	=230	e#	M2/2
1e#	p	2g# 2b	p	2cc##X	p	2ggg#	p	#viio65/V	=230	e#	M2/2
=231	=231	=231	=231	=231	=231	=231	=231	=231	=231	=231	=231
1b	p	2e# 2g#	p	2cc##X	p	2ggg#	p	#viio43/V	=231	e#	M2/2
1b	p	2e# 2g#	p	2cc##	p	2ggg#	p	#viio43/V	=231	e#	M2/2
=232	=232	=232	=232	=232	=232	=232	=232	=232	=232	=232	=232
[1d#	p	(2cc#	p	(2eeX	p	(2aaa#	p	V[iio6	=232	e#	M2/2
[1d#	p	4b#X	p	4dd#	p	4bbb#	p	I64	=232	e#	M2/2
[1d#	p	4a#)	p	4cc#)	p	4cccc#	p	V43	=232	e#	M2/2
=233	=233	=233	=233	=233	=233	=233	=233	=233	=233	=233	=233
1d#]	p	2g#	p	2b#	p	2dddd#)	p	I64	=233	e#	M2/2
1d#]	p	(2a#	p	(2cc#	p	(2ff##	p	V7]	=233	e#	M2/2
=234	=234	=234	=234	=234	=234	=234	=234	=234	=234	=234	=234
[1g#	p	2b#	p	2dd#	p	2ff#	p	V7/IV	=234	e#	M2/2
[1g#	p	2cc#	p	2g#	p	2ee#	p	IV64	=234	e#	M2/2
=235	=235	=235	=235	=235	=235	=235	=235	=235	=235	=235	=235
1g#]	p	2a#	p	2cc#	p	2ff##X	p	V43	=235	e#	M2/2
1g#]	p	2dd#	p	2b#	p	2gg#	p	I	=235	e#	M2/2
=236	=236	=236	=236	=236	=236	=236	=236	=236	=236	=236	=236
(2.g#	p	2b#	p	2dd#	p	2ff#	p	V7/IV]	=236	e#	M2/2
(2.g#	p	4g#	p	4cc#	p	(2ee#)	p	V65/ii	=236	e#	M2/2
[4g##X)	p	4dd#)	p	4b#)	p	(2ee#)	p	V65/ii	=236	e#	M2/2
=237	=237	=237	=237	=237	=237	=237	=237	=237	=237	=237	=237
1g##]	p	4r	p	1b# 1dd#	p	[1ee#)	p	V65/ii	=237	e#	M2/2
1g##]	p	(8e#L	p	1b# 1dd#	p	[1ee#)	p	V65/ii	=237	e#	M2/2
1g##]	p	8g##XJ	p	1b# 1dd#	p	[1ee#)	p	V65/ii	=237	e#	M2/2
1g##]	p	4b#')	p	1b# 1dd#	p	[1ee#)	p	V65/ii	=237	e#	M2/2
1g##]	p	(8b#L	p	1b# 1dd#	p	[1ee#)	p	V65/ii	=237	e#	M2/2
1g##]	p	8e#J	p	1b# 1dd#	p	[1ee#)	p	V65/ii	=237	e#	M2/2
=238	=238	=238	=238	=238	=238	=238	=238	=238	=238	=238	=238
[1a#	p	4a#')	p	(2cc#	p	2ee#]	p	ii[ii	=238	e#	M2/2
[1a#	p	4r	p	(2cc#	p	2ee#]	p	ii[ii	=238	e#	M2/2
[1a#	p	(2cc#	p	2a#	p	(2ee#	p	ii	=238	e#	M2/2
=239	=239	=239	=239	=239	=239	=239	=239	=239	=239	=239	=239
1a#]	p	2b#	p	2dd#	p	2gg##X	p	V43/ii	=239	e#	M2/2
1a#]	p	2ee#)	p	2cc#)	p	2aa#	p	ii]	=239	e#	M2/2
=240	=240	=240	=240	=240	=240	=240	=240	=240	=240	=240	=240
[1b	p	(2ee#	p	1cc##X	p	2gg#	p	#viio2/V	=240	e#	M2/2
[1b	p	4cc##X	p	1cc##X	p	[2ff##)	p	#VII6	=240	e#	M2/2
[1b	p	4f##)	p	1cc##X	p	[2ff##)	p	#VII6	=240	e#	M2/2
=241	=241	=241	=241	=241	=241	=241	=241	=241	=241	=241	=241
1b]	p	4r	p	[1f## [1cc##X	p	2.ff##]	p	I.I	=241	e#	M2/2
1b]	p	8F##L	p	[1f## [1cc##X	p	2.ff##]	p	I.I	=241	e#	M2/2
1b]	p	8A##XJ	p	[1f## [1cc##X	p	2.ff##]	p	I.I	=241	e#	M2/2
1b]	p	4c##X'	p	[1f## [1cc##X	p	2.ff##]	p	I.I	=241	e#	M2/2
1b]	p	8c##L	p	[1f## [1cc##X	p	4ccc##X	p	I.I	=241	e#	M2/2
1b]	p	8F##J	p	[1f## [1cc##X	p	4ccc##X	p	I.I	=241	e#	M2/2
=242	=242	=242	=242	=242	=242	=242	=242	=242	=242	=242	=242
[1FF## [1C##X	p	[2b	p	((2f##] 2cc##]	p	(2ccc##X	p	I	=242	e#	M2/2
[1FF## [1C##X	p	(8bL]	p	[2c##X)) [2b	p	2fff##	p	I	=242	e#	M2/2
[1FF## [1C##X	p	8g##X	p	[2c##X)) [2b	p	2fff##	p	I	=242	e#	M2/2
[1FF## [1C##X	p	8f##	p	[2c##X)) [2b	p	2fff##	p	I	=242	e#	M2/2
[1FF## [1C##X	p	8e##XJ	p	[2c##X)) [2b	p	2fff##	p	I	=242	e#	M2/2
=243	=243	=243	=243	=243	=243	=243	=243	=243	=243	=243	=243
1FF##] 1C##]	p	8f##L	p	1c##] 1b]	p	2aaa##X	p	I	=243	e#	M2/2
1FF##] 1C##]	p	8e##X	p	1c##] 1b]	p	2aaa##X	p	I	=243	e#	M2/2
1FF##] 1C##]	p	8d##X	p	1c##] 1b]	p	2aaa##X	p	I	=243	e#	M2/2
1FF##] 1C##]	p	8c##XJ	p	1c##] 1b]	p	2aaa##X	p	I	=243	e#	M2/2
1FF##] 1C##]	p	8B#XL	p	1c##] 1b]	p	2cccc##X)	p	I	=243	e#	M2/2
1FF##] 1C##]	p	8A##X	p	1c##] 1b]	p	2cccc##X)	p	I	=243	e#	M2/2
1FF##] 1C##]	p	8G##X	p	1c##] 1b]	p	2cccc##X)	p	I	=243	e#	M2/2
1FF##] 1C##]	p	8F##J)	p	1c##] 1b]	p	2cccc##X)	p	I	=243	e#	M2/2
=244	=244	=244	=244	=244	=244	=244	=244	=244	=244	=244	=244
[1GG##X [1C##X	p	(4.F##	p	[1c##X [1b#X	p	(2ccc##X	p	V43(7)	=244	e#	M2/2
[1GG##X [1C##X	p	8E##X)	p	[1c##X [1b#X	p	(2ccc##X	p	V43(7)	=244	e#	M2/2
[1GG##X [1C##X	p	2cc##X	p	[1c##X [1b#X	p	2eee##X	p	V43	=244	e#	M2/2
=245	=245	=245	=245	=245	=245	=245	=245	=245	=245	=245	=245
1GG##] 1C##]	p	2cc##X	p	1c##] 1b#]	p	2ggg##X	p	V43	=245	e#	M2/2
1GG##] 1C##]	p	2cc##	p	1c##] 1b#]	p	2cccc##X)	p	V43	=245	e#	M2/2
=246	=246	=246	=246	=246	=246	=246	=246	=246	=246	=246	=246
((1FF## 1C##X	p	(8cc##XL	p	(2c##X	p	(2aa##X	p	I	=246	e#	M2/2
((1FF## 1C##X	p	8b#	p	(2c##X	p	(2aa##X	p	I	=246	e#	M2/2
((1FF## 1C##X	p	8a##X	p	(2c##X	p	(2aa##X	p	I	=246	e#	M2/2
((1FF## 1C##X	p	8g##XJ	p	(2c##X	p	(2aa##X	p	I	=246	e#	M2/2
((1FF## 1C##X	p	8bL	p	2f##	p	(8aa##L)	p	I	=246	e#	M2/2
((1FF## 1C##X	p	8g##	p	2f##	p	8gg##X	p	I	=246	e#	M2/2
((1FF## 1C##X	p	8f##	p	2f##	p	8ff##	p	I	=246	e#	M2/2
((1FF## 1C##X	p	8e##XJ	p	2f##	p	8ee##XJ	p	I	=246	e#	M2/2
=247	=247	=247	=247	=247	=247	=247	=247	=247	=247	=247	=247
1FF##)) 1C##X	p	8f##L	p	2a##X	p	8ff##L	p	I	=247	e#	M2/2
1FF##)) 1C##X	p	8e##X	p	2a##X	p	8ee##X	p	I	=247	e#	M2/2
1FF##)) 1C##X	p	8d##X	p	2a##X	p	8dd##X	p	I	=247	e#	M2/2
1FF##)) 1C##X	p	8c##XJ	p	2a##X	p	8cc##XJ	p	I	=247	e#	M2/2
1FF##)) 1C##X	p	8B#XL	p	2cc##X)	p	8b#L	p	I	=247	e#	M2/2
1FF##)) 1C##X	p	8A##X	p	2cc##X)	p	8a##X	p	I	=247	e#	M2/2
1FF##)) 1C##X	p	8G##X	p	2cc##X)	p	8g##X	p	I	=247	e#	M2/2
1FF##)) 1C##X	p	8F##J)	p	2cc##X)	p	8f##J)	p	I	=247	e#	M2/2
=248||	=248||	=248||	=248||	=248||	=248||	=248||	=248||	=248||	=248||	=248||	=248||
[1GG## [1C##X	p	(4.F##	p	2c##X	p	(4.f##	p	V43(7)	=247	f##	M2/2
[1GG## [1C##X	p	8E##X)	p	2c##X	p	8e##X)	p	V43	=247	f##	M2/2
[1GG## [1C##X	p	2cc##X	p	[2e##X	p	2ccc##X	p	V43	=247	f##	M2/2
=249	=249	=249	=249	=249	=249	=249	=249	=249	=249	=249	=249
1GG##] 1C##]	p	2cc##	p	2e##]	p	2ccc##	p	V43	=249	f##	M2/2
1GG##] 1C##]	p	2cc##	p	2c## 2b#	p	2ccc##	p	V43	=249	f##	M2/2
=250	=250	=250	=250	=250	=250	=250	=250	=250	=250	=250	=250
((2AA##X 2C##	p	2r	p	2r	p	(4.g##	p	#viio7/iv	=250	f##	M2/2
	f##	M2/2
	!LO:TX:b:i:t=rit.	!LO:TX:b:i:t=rit.
	f##	M2/2
	=251	=251
	f##	M2/2
	f##	M2/2
	=252	=252
	f##	M2/2
	f##	M2/2
	f##	M2/2
	=253	=253
	f##	M2/2
	f##	M2/2
	=254	=254
	!	!
	f##	M2/2
	!	!
	f##	M2/2
	f##	M2/2
	=255	=255
	f##	M2/2
	f##	M2/2
	=256	=256
	f##	M2/2
	f##	M2/2
	=257	=257
	f##	M2/2
	f##	M2/2
	=258	=258
	f##	M2/2
	f##	M2/2
	=259	=259
	f##	M2/2
	f##	M2/2
	=260	=260
	f##	M2/2
	f##	M2/2
	=261	=261
	f##	M2/2
	f##	M2/2
	=262	=262
	f##	M2/2
	f##	M2/2
	f##	M2/2
	f##	M2/2
	f##	M2/2
	f##	M2/2
	=263	=263
	f##	M2/2
	!LO:TX:b:i:t=sempre	!LO:TX:b:i:t=sempre
	f##	M2/2
	f##	M2/2
	!	!
	f##	M2/2
	f##	M2/2
	f##	M2/2
	=264	=264
	f##	M2/2
	f##	M2/2
	f##	M2/2
	f##	M2/2
	f##	M2/2
	f##	M2/2
	=265	=265
	f##	M2/2
	f##	M2/2
	f##	M2/2
	f##	M2/2
	f##	M2/2
	f##	M2/2
	=266	=266
	f##	M2/2
	f##	M2/2
	f##	M2/2
	f##	M2/2
	f##	M2/2
	f##	M2/2
	=267	=267
	f##	M2/2
	*clefC4	*clefC4
	f##	M2/2
	f##	M2/2
	f##	M2/2
	f##	M2/2
	f##	M2/2
	=268	=268
	!LO:TX:b:i:t=cresc.	!LO:TX:b:i:t=cresc.
	f##	M2/2
	f##	M2/2
	f##	M2/2
	f##	M2/2
	f##	M2/2
	f##	M2/2
	=269	=269
	f##	M2/2
	f##	M2/2
	f##	M2/2
	f##	M2/2
	f##	M2/2
	f##	M2/2
	=270	=270
	f##	M2/2
	f##	M2/2
	f##	M2/2
	f##	M2/2
	f##	M2/2
	f##	M2/2
	=271	=271
	f##	M2/2
	f##	M2/2
	f##	M2/2
	f##	M2/2
	f##	M2/2
	f##	M2/2
	=272	=272
	f##	M2/2
	*clefF4	*clefF4
	f##	M2/2
	f##	M2/2
	f##	M2/2
	f##	M2/2
	f##	M2/2
	=273	=273
	f##	M2/2
	f##	M2/2
	f##	M2/2
	f##	M2/2
	f##	M2/2
	f##	M2/2
	=274	=274
	f##	M2/2
	f##	M2/2
	f##	M2/2
	f##	M2/2
	f##	M2/2
	f##	M2/2
	=275	=275
	f##	M2/2
	f##	M2/2
	f##	M2/2
	f##	M2/2
	f##	M2/2
	f##	M2/2
	=276	=276
	f##	M2/2
	f##	M2/2
	f##	M2/2
	f##	M2/2
	f##	M2/2
	f##	M2/2
	=277	=277
	f##	M2/2
	f##	M2/2
	f##	M2/2
	f##	M2/2
	*clefC4	*clefC4
	!	!
	f##	M2/2
	=278	=278
	f##	M2/2
	f##	M2/2
	=279	=279
	f##	M2/2
	f##	M2/2
	=280	=280
	f##	M2/2
	f##	M2/2
	f##	M2/2
	f##	M2/2
	=281	=281
	f##	M2/2
	f##	M2/2
	f##	M2/2
	f##	M2/2
	=282	=282
	f##	M2/2
	f##	M2/2
	=283	=283
	f##	M2/2
	f##	M2/2
	f##	M2/2
	=284	=284
	f##	M2/2
	f##	M2/2
	f##	M2/2
	f##	M2/2
	=285	=285
	f##	M2/2
	f##	M2/2
	f##	M2/2
	*clefF4	*clefF4
	f##	M2/2
	=286	=286
	!	!
	f##	M2/2
	!	!
	f##	M2/2
	f##	M2/2
	=287	=287
	f##	M2/2
	f##	M2/2
	f##	M2/2
	f##	M2/2
	=288	=288
	!	!
	f##	M2/2
	!	!
	f##	M2/2
	f##	M2/2
	=289	=289
	f##	M2/2
	f##	M2/2
	f##	M2/2
	f##	M2/2
	=290	=290
	f##	M2/2
	f##	M2/2
	f##	M2/2
	=291	=291
	f##	M2/2
	f##	M2/2
	f##	M2/2
	=292	=292
	!	!
	f##	M2/2
	f##	M2/2
	f##	M2/2
	f##	M2/2
	=293	=293
	f##	M2/2
	f##	M2/2
	f##	M2/2
	f##	M2/2
	f##	M2/2
	f##	M2/2
	=294	=294
	f##	M2/2
	f##	M2/2
	f##	M2/2
	f##	M2/2
	f##	M2/2
	f##	M2/2
	=295	=295
	f##	M2/2
	f##	M2/2
	f##	M2/2
	f##	M2/2
	f##	M2/2
	f##	M2/2
	=296	=296
	f##	M2/2
	f##	M2/2
	f##	M2/2
	f##	M2/2
	f##	M2/2
	f##	M2/2
	=297	=297
	f##	M2/2
	f##	M2/2
	f##	M2/2
	f##	M2/2
	f##	M2/2
	f##	M2/2
	=298	=298
	f##	M2/2
	f##	M2/2
	f##	M2/2
	f##	M2/2
	f##	M2/2
	f##	M2/2
	=299	=299
	f##	M2/2
	f##	M2/2
	f##	M2/2
	f##	M2/2
	f##	M2/2
	f##	M2/2
	=300	=300
	f##	M2/2
	f##	M2/2
	f##	M2/2
	f##	M2/2
	f##	M2/2
	f##	M2/2
	=301	=301
	f##	M2/2
	f##	M2/2
	f##	M2/2
	f##	M2/2
	f##	M2/2
	f##	M2/2
	=302	=302
	f##	M2/2
	!LO:TX:b:i:t=sempre	!LO:TX:b:i:t=sempre
	f##	M2/2
	f##	M2/2
	f##	M2/2
	f##	M2/2
	f##	M2/2
	=303	=303
	f##	M2/2
	f##	M2/2
	f##	M2/2
	=304	=304
	f##	M2/2
	f##	M2/2
	f##	M2/2
	f##	M2/2
	f##	M2/2
	f##	M2/2
	=305	=305
	f##	M2/2
	f##	M2/2
	f##	M2/2
	f##	M2/2
	f##	M2/2
	f##	M2/2
	=306	=306
	f##	M2/2
	f##	M2/2
	f##	M2/2
	f##	M2/2
	f##	M2/2
	f##	M2/2
	=307	=307
	f##	M2/2
	f##	M2/2
	f##	M2/2
	f##	M2/2
	f##	M2/2
	f##	M2/2
	=308	=308
	f##	M2/2
	f##	M2/2
	f##	M2/2
	f##	M2/2
	f##	M2/2
	f##	M2/2
	=309	=309
	f##	M2/2
	f##	M2/2
	f##	M2/2
	f##	M2/2
	f##	M2/2
	f##	M2/2
	=310	=310
	f##	M2/2
	f##	M2/2
	f##	M2/2
	f##	M2/2
	f##	M2/2
	f##	M2/2
	=311	=311
	f##	M2/2
	f##	M2/2
	f##	M2/2
	f##	M2/2
	f##	M2/2
	f##	M2/2
	=312	=312
	f##	M2/2
	f##	M2/2
	f##	M2/2
	f##	M2/2
	f##	M2/2
	=313	=313
	f##	M2/2
	f##	M2/2
	f##	M2/2
	f##	M2/2
	f##	M2/2
	=314	=314
	f##	M2/2
	f##	M2/2
	f##	M2/2
	f##	M2/2
	f##	M2/2
	f##	M2/2
	=315	=315
	f##	M2/2
	f##	M2/2
	f##	M2/2
	f##	M2/2
	f##	M2/2
	=316	=316
	f##	M2/2
	f##	M2/2
	f##	M2/2
	f##	M2/2
	f##	M2/2
	f##	M2/2
	=317	=317
	f##	M2/2
	f##	M2/2
	f##	M2/2
	f##	M2/2
	f##	M2/2
	=318	=318
	f##	M2/2
	f##	M2/2
	f##	M2/2
	f##	M2/2
	f##	M2/2
	f##	M2/2
	=319	=319
	f##	M2/2
	f##	M2/2
	f##	M2/2
	f##	M2/2
	f##	M2/2
	f##	M2/2
	=320	=320
	f##	M2/2
	f##	M2/2
	f##	M2/2
	f##	M2/2
	f##	M2/2
	f##	M2/2
	=321	=321
	f##	M2/2
	f##	M2/2
	f##	M2/2
	f##	M2/2
	=322	=322
	f##	M2/2
	f##	M2/2
	f##	M2/2
	f##	M2/2
	f##	M2/2
	f##	M2/2
	=323	=323
	f##	M2/2
	f##	M2/2
	f##	M2/2
	f##	M2/2
	f##	M2/2
	=324	=324
	f##	M2/2
	f##	M2/2
	f##	M2/2
	f##	M2/2
	f##	M2/2
	f##	M2/2
	=325	=325
	f##	M2/2
	f##	M2/2
	f##	M2/2
	f##	M2/2
	f##	M2/2
	=326	=326
	f##	M2/2
	f##	M2/2
	f##	M2/2
	f##	M2/2
	f##	M2/2
	f##	M2/2
	=327	=327
	f##	M2/2
	f##	M2/2
	f##	M2/2
	f##	M2/2
	f##	M2/2
	f##	M2/2
	=328	=328
	!LO:TX:b:i:t=dim.	!LO:TX:b:i:t=dim.
	f##	M2/2
	f##	M2/2
	f##	M2/2
	f##	M2/2
	f##	M2/2
	f##	M2/2
	=329	=329
	f##	M2/2
	f##	M2/2
	f##	M2/2
	f##	M2/2
	f##	M2/2
	f##	M2/2
	f##	M2/2
	f##	M2/2
	=330	=330
	f##	M2/2
	f##	M2/2
	f##	M2/2
	f##	M2/2
	f##	M2/2
	f##	M2/2
	f##	M2/2
	f##	M2/2
	=331	=331
	!LO:TX:b:i:t=cresc.	!LO:TX:b:i:t=cresc.
	f##	M2/2
	f##	M2/2
	f##	M2/2
	f##	M2/2
	=332	=332
	f##	M2/2
	f##	M2/2
	!	!
	f##	M2/2
	f##	M2/2
	=333	=333
	f##	M2/2
	f##	M2/2
	f##	M2/2
	f##	M2/2
	f##	M2/2
	f##	M2/2
	f##	M2/2
	f##	M2/2
	=334	=334
	f##	M2/2
	f##	M2/2
	f##	M2/2
	f##	M2/2
	f##	M2/2
	f##	M2/2
	f##	M2/2
	f##	M2/2
	=335	=335
	!LO:TX:b:i:t=cresc.	!LO:TX:b:i:t=cresc.
	f##	M2/2
	f##	M2/2
	f##	M2/2
	f##	M2/2
	=336	=336
	f##	M2/2
	f##	M2/2
	!	!
	f##	M2/2
	f##	M2/2
	f##	M2/2
	f##	M2/2
	=337	=337
	f##	M2/2
	f##	M2/2
	f##	M2/2
	f##	M2/2
	f##	M2/2
	f##	M2/2
	f##	M2/2
	f##	M2/2
	=338	=338
	f##	M2/2
	f##	M2/2
	f##	M2/2
	f##	M2/2
	f##	M2/2
	f##	M2/2
	f##	M2/2
	f##	M2/2
	=339	=339
	f##	M2/2
	f##	M2/2
	f##	M2/2
	f##	M2/2
	f##	M2/2
	f##	M2/2
	f##	M2/2
	f##	M2/2
	=340	=340
	f##	M2/2
	f##	M2/2
	f##	M2/2
	f##	M2/2
	f##	M2/2
	f##	M2/2
	f##	M2/2
	f##	M2/2
	=341	=341
	f##	M2/2
	f##	M2/2
	f##	M2/2
	f##	M2/2
	f##	M2/2
	f##	M2/2
	f##	M2/2
	f##	M2/2
	=342	=342
	f##	M2/2
	f##	M2/2
	f##	M2/2
	f##	M2/2
	f##	M2/2
	f##	M2/2
	f##	M2/2
	f##	M2/2
	=343	=343
	f##	M2/2
	f##	M2/2
	f##	M2/2
	f##	M2/2
	f##	M2/2
	f##	M2/2
	f##	M2/2
	f##	M2/2
	=344	=344
	f##	M2/2
	f##	M2/2
	f##	M2/2
	f##	M2/2
	f##	M2/2
	f##	M2/2
	f##	M2/2
	f##	M2/2
	=345	=345
	f##	M2/2
	f##	M2/2
	f##	M2/2
	f##	M2/2
	f##	M2/2
	f##	M2/2
	f##	M2/2
	f##	M2/2
	=346	=346
	f##	M2/2
	f##	M2/2
	f##	M2/2
	f##	M2/2
	f##	M2/2
	f##	M2/2
	f##	M2/2
	f##	M2/2
	=347	=347
	f##	M2/2
	!	!
	f##	M2/2
	f##	M2/2
	f##	M2/2
	f##	M2/2
	f##	M2/2
	=348	=348
	f##	M2/2
	=349	=349
	f##	M2/2
	!	!
	f##	M2/2
	f##	M2/2
	f##	M2/2
	f##	M2/2
	f##	M2/2
	=350	=350
	f##	M2/2
	f##	M2/2
	f##	M2/2
	f##	M2/2
	f##	M2/2
	f##	M2/2
	=351	=351
	f##	M2/2
	f##	M2/2
	f##	M2/2
	f##	M2/2
	f##	M2/2
	f##	M2/2
	=352	=352
	f##	M2/2
	f##	M2/2
	f##	M2/2
	f##	M2/2
	f##	M2/2
	f##	M2/2
	=353	=353
	f##	M2/2
	f##	M2/2
	f##	M2/2
	f##	M2/2
	f##	M2/2
	f##	M2/2
	=354	=354
	f##	M2/2
	f##	M2/2
	f##	M2/2
	f##	M2/2
	f##	M2/2
	f##	M2/2
	=355	=355
	f##	M2/2
	f##	M2/2
	f##	M2/2
	f##	M2/2
	f##	M2/2
	f##	M2/2
	=356	=356
	f##	M2/2
	f##	M2/2
	f##	M2/2
	f##	M2/2
	f##	M2/2
	f##	M2/2
	=357	=357
	f##	M2/2
	f##	M2/2
	f##	M2/2
	f##	M2/2
	f##	M2/2
	f##	M2/2
	=358	=358
	f##	M2/2
	f##	M2/2
	f##	M2/2
	f##	M2/2
	f##	M2/2
	f##	M2/2
	=359	=359
	f##	M2/2
	f##	M2/2
	f##	M2/2
	f##	M2/2
	f##	M2/2
	f##	M2/2
	=360	=360
	f##	M2/2
	f##	M2/2
	f##	M2/2
	f##	M2/2
	f##	M2/2
	f##	M2/2
	=361	=361
	f##	M2/2
	f##	M2/2
	f##	M2/2
	f##	M2/2
	f##	M2/2
	f##	M2/2
	=362	=362
	f##	M2/2
	f##	M2/2
	f##	M2/2
	f##	M2/2
	f##	M2/2
	f##	M2/2
	=363	=363
	f##	M2/2
	f##	M2/2
	f##	M2/2
	f##	M2/2
	f##	M2/2
	f##	M2/2
	=364	=364
	f##	M2/2
	=365	=365
	f##	M2/2
	f##	M2/2
	f##	M2/2
	f##	M2/2
	f##	M2/2
	f##	M2/2
	=366	=366
	f##	M2/2
	=367	=367
	f##	M2/2
	f##	M2/2
	f##	M2/2
	f##	M2/2
	f##	M2/2
	f##	M2/2
	=368	=368
	f##	M2/2
	*clefC4	*clefC4
	f##	M2/2
	f##	M2/2
	f##	M2/2
	f##	M2/2
	f##	M2/2
	=369	=369
	f##	M2/2
	f##	M2/2
	f##	M2/2
	f##	M2/2
	f##	M2/2
	=370	=370
	f##	M2/2
	f##	M2/2
	f##	M2/2
	f##	M2/2
	f##	M2/2
	f##	M2/2
	=371	=371
	f##	M2/2
	*clefF4	*clefF4
	f##	M2/2
	f##	M2/2
	f##	M2/2
	f##	M2/2
	f##	M2/2
	=372	=372
	f##	M2/2
	f##	M2/2
	f##	M2/2
	f##	M2/2
	f##	M2/2
	f##	M2/2
	=373	=373
	f##	M2/2
	f##	M2/2
	f##	M2/2
	f##	M2/2
	f##	M2/2
	f##	M2/2
	=374	=374
	f##	M2/2
	f##	M2/2
	f##	M2/2
	f##	M2/2
	f##	M2/2
	f##	M2/2
	=375	=375
	f##	M2/2
	f##	M2/2
	f##	M2/2
	f##	M2/2
	f##	M2/2
	f##	M2/2
	=376	=376
	f##	M2/2
	f##	M2/2
	f##	M2/2
	f##	M2/2
	f##	M2/2
	f##	M2/2
	=377	=377
	!	!
	!	!
	f##	M2/2
	f##	M2/2
	f##	M2/2
	f##	M2/2
	f##	M2/2
	f##	M2/2
	=378	=378
	!LO:TX:b:i:t=espress.	!LO:TX:b:i:t=espress.
	f##	M2/2
	f##	M2/2
	f##	M2/2
	f##	M2/2
	f##	M2/2
	f##	M2/2
	=379	=379
	f##	M2/2
	f##	M2/2
	f##	M2/2
	!	!
	f##	M2/2
	f##	M2/2
	f##	M2/2
	=380	=380
	f##	M2/2
	f##	M2/2
	f##	M2/2
	f##	M2/2
	f##	M2/2
	f##	M2/2
	=381	=381
	f##	M2/2
	f##	M2/2
	f##	M2/2
	f##	M2/2
	f##	M2/2
	f##	M2/2
	=382	=382
	f##	M2/2
	f##	M2/2
	f##	M2/2
	f##	M2/2
	f##	M2/2
	f##	M2/2
	=383	=383
	!	!
	!LO:TX:b:i:t=cresc.	!LO:TX:b:i:t=cresc.
	f##	M2/2
	f##	M2/2
	f##	M2/2
	f##	M2/2
	f##	M2/2
	f##	M2/2
	=384	=384
	!LO:TX:b:i:t=cresc.	!LO:TX:b:i:t=cresc.
	f##	M2/2
	f##	M2/2
	f##	M2/2
	f##	M2/2
	f##	M2/2
	f##	M2/2
	=385	=385
	!	!
	f##	M2/2
	f##	M2/2
	f##	M2/2
	f##	M2/2
	f##	M2/2
	f##	M2/2
	=386	=386
	f##	M2/2
	f##	M2/2
	f##	M2/2
	f##	M2/2
	f##	M2/2
	f##	M2/2
	=387	=387
	f##	M2/2
	f##	M2/2
	f##	M2/2
	f##	M2/2
	=388	=388
	f##	M2/2
	f##	M2/2
	f##	M2/2
	==	==
	*-	*-
	!!!system-decoration: [(s1,s2,s3,s4)]	!!!system-decoration: [(s1,s2,s3,s4)]
